(Generated with: DXF2GCODE, Version: Py3.5.3 PyQt5.9.2, Date: $Date: Mon Sep 25 13:57:11 2017 +0200 $)
(Created from file: /home/florath/CNC/PLAN/wodiyc/plans/101_ZAxis_PipeAdjustmentBlock.dxf)
(Output format description: G-CODE for LinuxCNC)
(Time: Thu Dec 28 10:17:31 2017)
G21 (Units in millimeters)
G90 (Absolute programming)
G64 (Default cutting) G17 (XY plane) G40 (Cancel radius comp.) G49 (Cancel length comp.)
G0 Z   5.000 

(*** LAYER: Simple-Mill-3.2 ***)
T1 M6
S1000

(* SHAPE Nr: 17 *)
G0 X   9.662 Y  14.471
M3 M8
G0 Z   2.500 
F150
G1 Z  -0.200
F400
G1 X  12.961 Y  17.770
G1 X  17.770 Y  12.961
G1 X  14.471 Y   9.662
G2 X  14.471 Y  -9.662 I -14.471 J  -9.662
G1 X  17.770 Y -12.961
G1 X  12.961 Y -17.770
G1 X   9.662 Y -14.471
G2 X  -9.662 Y -14.471 I  -9.662 J  14.471
G1 X -12.961 Y -17.770
G1 X -17.770 Y -12.961
G1 X -14.471 Y  -9.662
G2 X -14.471 Y   9.662 I  14.471 J   9.662
G1 X -17.770 Y  12.961
G1 X -12.961 Y  17.770
G1 X  -9.662 Y  14.471
G2 X   9.662 Y  14.471 I   9.662 J -14.471
F150
G1 Z  -0.400
F400
G1 X  12.961 Y  17.770
G1 X  17.770 Y  12.961
G1 X  14.471 Y   9.662
G2 X  14.471 Y  -9.662 I -14.471 J  -9.662
G1 X  17.770 Y -12.961
G1 X  12.961 Y -17.770
G1 X   9.662 Y -14.471
G2 X  -9.662 Y -14.471 I  -9.662 J  14.471
G1 X -12.961 Y -17.770
G1 X -17.770 Y -12.961
G1 X -14.471 Y  -9.662
G2 X -14.471 Y   9.662 I  14.471 J   9.662
G1 X -17.770 Y  12.961
G1 X -12.961 Y  17.770
G1 X  -9.662 Y  14.471
G2 X   9.662 Y  14.471 I   9.662 J -14.471
F150
G1 Z  -0.600
F400
G1 X  12.961 Y  17.770
G1 X  17.770 Y  12.961
G1 X  14.471 Y   9.662
G2 X  14.471 Y  -9.662 I -14.471 J  -9.662
G1 X  17.770 Y -12.961
G1 X  12.961 Y -17.770
G1 X   9.662 Y -14.471
G2 X  -9.662 Y -14.471 I  -9.662 J  14.471
G1 X -12.961 Y -17.770
G1 X -17.770 Y -12.961
G1 X -14.471 Y  -9.662
G2 X -14.471 Y   9.662 I  14.471 J   9.662
G1 X -17.770 Y  12.961
G1 X -12.961 Y  17.770
G1 X  -9.662 Y  14.471
G2 X   9.662 Y  14.471 I   9.662 J -14.471
F150
G1 Z  -0.800
F400
G1 X  12.961 Y  17.770
G1 X  17.770 Y  12.961
G1 X  14.471 Y   9.662
G2 X  14.471 Y  -9.662 I -14.471 J  -9.662
G1 X  17.770 Y -12.961
G1 X  12.961 Y -17.770
G1 X   9.662 Y -14.471
G2 X  -9.662 Y -14.471 I  -9.662 J  14.471
G1 X -12.961 Y -17.770
G1 X -17.770 Y -12.961
G1 X -14.471 Y  -9.662
G2 X -14.471 Y   9.662 I  14.471 J   9.662
G1 X -17.770 Y  12.961
G1 X -12.961 Y  17.770
G1 X  -9.662 Y  14.471
G2 X   9.662 Y  14.471 I   9.662 J -14.471
F150
G1 Z  -1.000
F400
G1 X  12.961 Y  17.770
G1 X  17.770 Y  12.961
G1 X  14.471 Y   9.662
G2 X  14.471 Y  -9.662 I -14.471 J  -9.662
G1 X  17.770 Y -12.961
G1 X  12.961 Y -17.770
G1 X   9.662 Y -14.471
G2 X  -9.662 Y -14.471 I  -9.662 J  14.471
G1 X -12.961 Y -17.770
G1 X -17.770 Y -12.961
G1 X -14.471 Y  -9.662
G2 X -14.471 Y   9.662 I  14.471 J   9.662
G1 X -17.770 Y  12.961
G1 X -12.961 Y  17.770
G1 X  -9.662 Y  14.471
G2 X   9.662 Y  14.471 I   9.662 J -14.471
F150
G1 Z  -1.200
F400
G1 X  12.961 Y  17.770
G1 X  17.770 Y  12.961
G1 X  14.471 Y   9.662
G2 X  14.471 Y  -9.662 I -14.471 J  -9.662
G1 X  17.770 Y -12.961
G1 X  12.961 Y -17.770
G1 X   9.662 Y -14.471
G2 X  -9.662 Y -14.471 I  -9.662 J  14.471
G1 X -12.961 Y -17.770
G1 X -17.770 Y -12.961
G1 X -14.471 Y  -9.662
G2 X -14.471 Y   9.662 I  14.471 J   9.662
G1 X -17.770 Y  12.961
G1 X -12.961 Y  17.770
G1 X  -9.662 Y  14.471
G2 X   9.662 Y  14.471 I   9.662 J -14.471
F150
G1 Z  -1.400
F400
G1 X  12.961 Y  17.770
G1 X  17.770 Y  12.961
G1 X  14.471 Y   9.662
G2 X  14.471 Y  -9.662 I -14.471 J  -9.662
G1 X  17.770 Y -12.961
G1 X  12.961 Y -17.770
G1 X   9.662 Y -14.471
G2 X  -9.662 Y -14.471 I  -9.662 J  14.471
G1 X -12.961 Y -17.770
G1 X -17.770 Y -12.961
G1 X -14.471 Y  -9.662
G2 X -14.471 Y   9.662 I  14.471 J   9.662
G1 X -17.770 Y  12.961
G1 X -12.961 Y  17.770
G1 X  -9.662 Y  14.471
G2 X   9.662 Y  14.471 I   9.662 J -14.471
F150
G1 Z  -1.600
F400
G1 X  12.961 Y  17.770
G1 X  17.770 Y  12.961
G1 X  14.471 Y   9.662
G2 X  14.471 Y  -9.662 I -14.471 J  -9.662
G1 X  17.770 Y -12.961
G1 X  12.961 Y -17.770
G1 X   9.662 Y -14.471
G2 X  -9.662 Y -14.471 I  -9.662 J  14.471
G1 X -12.961 Y -17.770
G1 X -17.770 Y -12.961
G1 X -14.471 Y  -9.662
G2 X -14.471 Y   9.662 I  14.471 J   9.662
G1 X -17.770 Y  12.961
G1 X -12.961 Y  17.770
G1 X  -9.662 Y  14.471
G2 X   9.662 Y  14.471 I   9.662 J -14.471
F150
G1 Z  -1.800
F400
G1 X  12.961 Y  17.770
G1 X  17.770 Y  12.961
G1 X  14.471 Y   9.662
G2 X  14.471 Y  -9.662 I -14.471 J  -9.662
G1 X  17.770 Y -12.961
G1 X  12.961 Y -17.770
G1 X   9.662 Y -14.471
G2 X  -9.662 Y -14.471 I  -9.662 J  14.471
G1 X -12.961 Y -17.770
G1 X -17.770 Y -12.961
G1 X -14.471 Y  -9.662
G2 X -14.471 Y   9.662 I  14.471 J   9.662
G1 X -17.770 Y  12.961
G1 X -12.961 Y  17.770
G1 X  -9.662 Y  14.471
G2 X   9.662 Y  14.471 I   9.662 J -14.471
F150
G1 Z  -2.000
F400
G1 X  12.961 Y  17.770
G1 X  17.770 Y  12.961
G1 X  14.471 Y   9.662
G2 X  14.471 Y  -9.662 I -14.471 J  -9.662
G1 X  17.770 Y -12.961
G1 X  12.961 Y -17.770
G1 X   9.662 Y -14.471
G2 X  -9.662 Y -14.471 I  -9.662 J  14.471
G1 X -12.961 Y -17.770
G1 X -17.770 Y -12.961
G1 X -14.471 Y  -9.662
G2 X -14.471 Y   9.662 I  14.471 J   9.662
G1 X -17.770 Y  12.961
G1 X -12.961 Y  17.770
G1 X  -9.662 Y  14.471
G2 X   9.662 Y  14.471 I   9.662 J -14.471
F150
G1 Z  -2.200
F400
G1 X  12.961 Y  17.770
G1 X  17.770 Y  12.961
G1 X  14.471 Y   9.662
G2 X  14.471 Y  -9.662 I -14.471 J  -9.662
G1 X  17.770 Y -12.961
G1 X  12.961 Y -17.770
G1 X   9.662 Y -14.471
G2 X  -9.662 Y -14.471 I  -9.662 J  14.471
G1 X -12.961 Y -17.770
G1 X -17.770 Y -12.961
G1 X -14.471 Y  -9.662
G2 X -14.471 Y   9.662 I  14.471 J   9.662
G1 X -17.770 Y  12.961
G1 X -12.961 Y  17.770
G1 X  -9.662 Y  14.471
G2 X   9.662 Y  14.471 I   9.662 J -14.471
F150
G1 Z  -2.400
F400
G1 X  12.961 Y  17.770
G1 X  17.770 Y  12.961
G1 X  14.471 Y   9.662
G2 X  14.471 Y  -9.662 I -14.471 J  -9.662
G1 X  17.770 Y -12.961
G1 X  12.961 Y -17.770
G1 X   9.662 Y -14.471
G2 X  -9.662 Y -14.471 I  -9.662 J  14.471
G1 X -12.961 Y -17.770
G1 X -17.770 Y -12.961
G1 X -14.471 Y  -9.662
G2 X -14.471 Y   9.662 I  14.471 J   9.662
G1 X -17.770 Y  12.961
G1 X -12.961 Y  17.770
G1 X  -9.662 Y  14.471
G2 X   9.662 Y  14.471 I   9.662 J -14.471
F150
G1 Z  -2.600
F400
G1 X  12.961 Y  17.770
G1 X  17.770 Y  12.961
G1 X  14.471 Y   9.662
G2 X  14.471 Y  -9.662 I -14.471 J  -9.662
G1 X  17.770 Y -12.961
G1 X  12.961 Y -17.770
G1 X   9.662 Y -14.471
G2 X  -9.662 Y -14.471 I  -9.662 J  14.471
G1 X -12.961 Y -17.770
G1 X -17.770 Y -12.961
G1 X -14.471 Y  -9.662
G2 X -14.471 Y   9.662 I  14.471 J   9.662
G1 X -17.770 Y  12.961
G1 X -12.961 Y  17.770
G1 X  -9.662 Y  14.471
G2 X   9.662 Y  14.471 I   9.662 J -14.471
F150
G1 Z  -2.800
F400
G1 X  12.961 Y  17.770
G1 X  17.770 Y  12.961
G1 X  14.471 Y   9.662
G2 X  14.471 Y  -9.662 I -14.471 J  -9.662
G1 X  17.770 Y -12.961
G1 X  12.961 Y -17.770
G1 X   9.662 Y -14.471
G2 X  -9.662 Y -14.471 I  -9.662 J  14.471
G1 X -12.961 Y -17.770
G1 X -17.770 Y -12.961
G1 X -14.471 Y  -9.662
G2 X -14.471 Y   9.662 I  14.471 J   9.662
G1 X -17.770 Y  12.961
G1 X -12.961 Y  17.770
G1 X  -9.662 Y  14.471
G2 X   9.662 Y  14.471 I   9.662 J -14.471
F150
G1 Z  -3.000
F400
G1 X  12.961 Y  17.770
G1 X  17.770 Y  12.961
G1 X  14.471 Y   9.662
G2 X  14.471 Y  -9.662 I -14.471 J  -9.662
G1 X  17.770 Y -12.961
G1 X  12.961 Y -17.770
G1 X   9.662 Y -14.471
G2 X  -9.662 Y -14.471 I  -9.662 J  14.471
G1 X -12.961 Y -17.770
G1 X -17.770 Y -12.961
G1 X -14.471 Y  -9.662
G2 X -14.471 Y   9.662 I  14.471 J   9.662
G1 X -17.770 Y  12.961
G1 X -12.961 Y  17.770
G1 X  -9.662 Y  14.471
G2 X   9.662 Y  14.471 I   9.662 J -14.471
F150
G1 Z  -3.200
F400
G1 X  12.961 Y  17.770
G1 X  17.770 Y  12.961
G1 X  14.471 Y   9.662
G2 X  14.471 Y  -9.662 I -14.471 J  -9.662
G1 X  17.770 Y -12.961
G1 X  12.961 Y -17.770
G1 X   9.662 Y -14.471
G2 X  -9.662 Y -14.471 I  -9.662 J  14.471
G1 X -12.961 Y -17.770
G1 X -17.770 Y -12.961
G1 X -14.471 Y  -9.662
G2 X -14.471 Y   9.662 I  14.471 J   9.662
G1 X -17.770 Y  12.961
G1 X -12.961 Y  17.770
G1 X  -9.662 Y  14.471
G2 X   9.662 Y  14.471 I   9.662 J -14.471
F150
G1 Z  -3.400
F400
G1 X  12.961 Y  17.770
G1 X  17.770 Y  12.961
G1 X  14.471 Y   9.662
G2 X  14.471 Y  -9.662 I -14.471 J  -9.662
G1 X  17.770 Y -12.961
G1 X  12.961 Y -17.770
G1 X   9.662 Y -14.471
G2 X  -9.662 Y -14.471 I  -9.662 J  14.471
G1 X -12.961 Y -17.770
G1 X -17.770 Y -12.961
G1 X -14.471 Y  -9.662
G2 X -14.471 Y   9.662 I  14.471 J   9.662
G1 X -17.770 Y  12.961
G1 X -12.961 Y  17.770
G1 X  -9.662 Y  14.471
G2 X   9.662 Y  14.471 I   9.662 J -14.471
F150
G1 Z  -3.600
F400
G1 X  12.961 Y  17.770
G1 X  17.770 Y  12.961
G1 X  14.471 Y   9.662
G2 X  14.471 Y  -9.662 I -14.471 J  -9.662
G1 X  17.770 Y -12.961
G1 X  12.961 Y -17.770
G1 X   9.662 Y -14.471
G2 X  -9.662 Y -14.471 I  -9.662 J  14.471
G1 X -12.961 Y -17.770
G1 X -17.770 Y -12.961
G1 X -14.471 Y  -9.662
G2 X -14.471 Y   9.662 I  14.471 J   9.662
G1 X -17.770 Y  12.961
G1 X -12.961 Y  17.770
G1 X  -9.662 Y  14.471
G2 X   9.662 Y  14.471 I   9.662 J -14.471
F150
G1 Z  -3.800
F400
G1 X  12.961 Y  17.770
G1 X  17.770 Y  12.961
G1 X  14.471 Y   9.662
G2 X  14.471 Y  -9.662 I -14.471 J  -9.662
G1 X  17.770 Y -12.961
G1 X  12.961 Y -17.770
G1 X   9.662 Y -14.471
G2 X  -9.662 Y -14.471 I  -9.662 J  14.471
G1 X -12.961 Y -17.770
G1 X -17.770 Y -12.961
G1 X -14.471 Y  -9.662
G2 X -14.471 Y   9.662 I  14.471 J   9.662
G1 X -17.770 Y  12.961
G1 X -12.961 Y  17.770
G1 X  -9.662 Y  14.471
G2 X   9.662 Y  14.471 I   9.662 J -14.471
F150
G1 Z  -4.000
F400
G1 X  12.961 Y  17.770
G1 X  17.770 Y  12.961
G1 X  14.471 Y   9.662
G2 X  14.471 Y  -9.662 I -14.471 J  -9.662
G1 X  17.770 Y -12.961
G1 X  12.961 Y -17.770
G1 X   9.662 Y -14.471
G2 X  -9.662 Y -14.471 I  -9.662 J  14.471
G1 X -12.961 Y -17.770
G1 X -17.770 Y -12.961
G1 X -14.471 Y  -9.662
G2 X -14.471 Y   9.662 I  14.471 J   9.662
G1 X -17.770 Y  12.961
G1 X -12.961 Y  17.770
G1 X  -9.662 Y  14.471
G2 X   9.662 Y  14.471 I   9.662 J -14.471
F150
G1 Z  -4.200
F400
G1 X  12.961 Y  17.770
G1 X  17.770 Y  12.961
G1 X  14.471 Y   9.662
G2 X  14.471 Y  -9.662 I -14.471 J  -9.662
G1 X  17.770 Y -12.961
G1 X  12.961 Y -17.770
G1 X   9.662 Y -14.471
G2 X  -9.662 Y -14.471 I  -9.662 J  14.471
G1 X -12.961 Y -17.770
G1 X -17.770 Y -12.961
G1 X -14.471 Y  -9.662
G2 X -14.471 Y   9.662 I  14.471 J   9.662
G1 X -17.770 Y  12.961
G1 X -12.961 Y  17.770
G1 X  -9.662 Y  14.471
G2 X   9.662 Y  14.471 I   9.662 J -14.471
F150
G1 Z  -4.400
F400
G1 X  12.961 Y  17.770
G1 X  17.770 Y  12.961
G1 X  14.471 Y   9.662
G2 X  14.471 Y  -9.662 I -14.471 J  -9.662
G1 X  17.770 Y -12.961
G1 X  12.961 Y -17.770
G1 X   9.662 Y -14.471
G2 X  -9.662 Y -14.471 I  -9.662 J  14.471
G1 X -12.961 Y -17.770
G1 X -17.770 Y -12.961
G1 X -14.471 Y  -9.662
G2 X -14.471 Y   9.662 I  14.471 J   9.662
G1 X -17.770 Y  12.961
G1 X -12.961 Y  17.770
G1 X  -9.662 Y  14.471
G2 X   9.662 Y  14.471 I   9.662 J -14.471
F150
G1 Z  -4.600
F400
G1 X  12.961 Y  17.770
G1 X  17.770 Y  12.961
G1 X  14.471 Y   9.662
G2 X  14.471 Y  -9.662 I -14.471 J  -9.662
G1 X  17.770 Y -12.961
G1 X  12.961 Y -17.770
G1 X   9.662 Y -14.471
G2 X  -9.662 Y -14.471 I  -9.662 J  14.471
G1 X -12.961 Y -17.770
G1 X -17.770 Y -12.961
G1 X -14.471 Y  -9.662
G2 X -14.471 Y   9.662 I  14.471 J   9.662
G1 X -17.770 Y  12.961
G1 X -12.961 Y  17.770
G1 X  -9.662 Y  14.471
G2 X   9.662 Y  14.471 I   9.662 J -14.471
F150
G1 Z  -4.800
F400
G1 X  12.961 Y  17.770
G1 X  17.770 Y  12.961
G1 X  14.471 Y   9.662
G2 X  14.471 Y  -9.662 I -14.471 J  -9.662
G1 X  17.770 Y -12.961
G1 X  12.961 Y -17.770
G1 X   9.662 Y -14.471
G2 X  -9.662 Y -14.471 I  -9.662 J  14.471
G1 X -12.961 Y -17.770
G1 X -17.770 Y -12.961
G1 X -14.471 Y  -9.662
G2 X -14.471 Y   9.662 I  14.471 J   9.662
G1 X -17.770 Y  12.961
G1 X -12.961 Y  17.770
G1 X  -9.662 Y  14.471
G2 X   9.662 Y  14.471 I   9.662 J -14.471
F150
G1 Z  -5.000
F400
G1 X  12.961 Y  17.770
G1 X  17.770 Y  12.961
G1 X  14.471 Y   9.662
G2 X  14.471 Y  -9.662 I -14.471 J  -9.662
G1 X  17.770 Y -12.961
G1 X  12.961 Y -17.770
G1 X   9.662 Y -14.471
G2 X  -9.662 Y -14.471 I  -9.662 J  14.471
G1 X -12.961 Y -17.770
G1 X -17.770 Y -12.961
G1 X -14.471 Y  -9.662
G2 X -14.471 Y   9.662 I  14.471 J   9.662
G1 X -17.770 Y  12.961
G1 X -12.961 Y  17.770
G1 X  -9.662 Y  14.471
G2 X   9.662 Y  14.471 I   9.662 J -14.471
F150
G1 Z  -5.200
F400
G1 X  12.961 Y  17.770
G1 X  17.770 Y  12.961
G1 X  14.471 Y   9.662
G2 X  14.471 Y  -9.662 I -14.471 J  -9.662
G1 X  17.770 Y -12.961
G1 X  12.961 Y -17.770
G1 X   9.662 Y -14.471
G2 X  -9.662 Y -14.471 I  -9.662 J  14.471
G1 X -12.961 Y -17.770
G1 X -17.770 Y -12.961
G1 X -14.471 Y  -9.662
G2 X -14.471 Y   9.662 I  14.471 J   9.662
G1 X -17.770 Y  12.961
G1 X -12.961 Y  17.770
G1 X  -9.662 Y  14.471
G2 X   9.662 Y  14.471 I   9.662 J -14.471
F150
G1 Z  -5.400
F400
G1 X  12.961 Y  17.770
G1 X  17.770 Y  12.961
G1 X  14.471 Y   9.662
G2 X  14.471 Y  -9.662 I -14.471 J  -9.662
G1 X  17.770 Y -12.961
G1 X  12.961 Y -17.770
G1 X   9.662 Y -14.471
G2 X  -9.662 Y -14.471 I  -9.662 J  14.471
G1 X -12.961 Y -17.770
G1 X -17.770 Y -12.961
G1 X -14.471 Y  -9.662
G2 X -14.471 Y   9.662 I  14.471 J   9.662
G1 X -17.770 Y  12.961
G1 X -12.961 Y  17.770
G1 X  -9.662 Y  14.471
G2 X   9.662 Y  14.471 I   9.662 J -14.471
F150
G1 Z  -5.600
F400
G1 X  12.961 Y  17.770
G1 X  17.770 Y  12.961
G1 X  14.471 Y   9.662
G2 X  14.471 Y  -9.662 I -14.471 J  -9.662
G1 X  17.770 Y -12.961
G1 X  12.961 Y -17.770
G1 X   9.662 Y -14.471
G2 X  -9.662 Y -14.471 I  -9.662 J  14.471
G1 X -12.961 Y -17.770
G1 X -17.770 Y -12.961
G1 X -14.471 Y  -9.662
G2 X -14.471 Y   9.662 I  14.471 J   9.662
G1 X -17.770 Y  12.961
G1 X -12.961 Y  17.770
G1 X  -9.662 Y  14.471
G2 X   9.662 Y  14.471 I   9.662 J -14.471
F150
G1 Z  -5.800
F400
G1 X  12.961 Y  17.770
G1 X  17.770 Y  12.961
G1 X  14.471 Y   9.662
G2 X  14.471 Y  -9.662 I -14.471 J  -9.662
G1 X  17.770 Y -12.961
G1 X  12.961 Y -17.770
G1 X   9.662 Y -14.471
G2 X  -9.662 Y -14.471 I  -9.662 J  14.471
G1 X -12.961 Y -17.770
G1 X -17.770 Y -12.961
G1 X -14.471 Y  -9.662
G2 X -14.471 Y   9.662 I  14.471 J   9.662
G1 X -17.770 Y  12.961
G1 X -12.961 Y  17.770
G1 X  -9.662 Y  14.471
G2 X   9.662 Y  14.471 I   9.662 J -14.471
F150
G1 Z  -6.000
F400
G1 X  12.961 Y  17.770
G1 X  17.770 Y  12.961
G1 X  14.471 Y   9.662
G2 X  14.471 Y  -9.662 I -14.471 J  -9.662
G1 X  17.770 Y -12.961
G1 X  12.961 Y -17.770
G1 X   9.662 Y -14.471
G2 X  -9.662 Y -14.471 I  -9.662 J  14.471
G1 X -12.961 Y -17.770
G1 X -17.770 Y -12.961
G1 X -14.471 Y  -9.662
G2 X -14.471 Y   9.662 I  14.471 J   9.662
G1 X -17.770 Y  12.961
G1 X -12.961 Y  17.770
G1 X  -9.662 Y  14.471
G2 X   9.662 Y  14.471 I   9.662 J -14.471
F150
G1 Z  -6.200
F400
G1 X  12.961 Y  17.770
G1 X  17.770 Y  12.961
G1 X  14.471 Y   9.662
G2 X  14.471 Y  -9.662 I -14.471 J  -9.662
G1 X  17.770 Y -12.961
G1 X  12.961 Y -17.770
G1 X   9.662 Y -14.471
G2 X  -9.662 Y -14.471 I  -9.662 J  14.471
G1 X -12.961 Y -17.770
G1 X -17.770 Y -12.961
G1 X -14.471 Y  -9.662
G2 X -14.471 Y   9.662 I  14.471 J   9.662
G1 X -17.770 Y  12.961
G1 X -12.961 Y  17.770
G1 X  -9.662 Y  14.471
G2 X   9.662 Y  14.471 I   9.662 J -14.471
F150
G1 Z  -6.400
F400
G1 X  12.961 Y  17.770
G1 X  17.770 Y  12.961
G1 X  14.471 Y   9.662
G2 X  14.471 Y  -9.662 I -14.471 J  -9.662
G1 X  17.770 Y -12.961
G1 X  12.961 Y -17.770
G1 X   9.662 Y -14.471
G2 X  -9.662 Y -14.471 I  -9.662 J  14.471
G1 X -12.961 Y -17.770
G1 X -17.770 Y -12.961
G1 X -14.471 Y  -9.662
G2 X -14.471 Y   9.662 I  14.471 J   9.662
G1 X -17.770 Y  12.961
G1 X -12.961 Y  17.770
G1 X  -9.662 Y  14.471
G2 X   9.662 Y  14.471 I   9.662 J -14.471
F150
G1 Z  -6.600
F400
G1 X  12.961 Y  17.770
G1 X  17.770 Y  12.961
G1 X  14.471 Y   9.662
G2 X  14.471 Y  -9.662 I -14.471 J  -9.662
G1 X  17.770 Y -12.961
G1 X  12.961 Y -17.770
G1 X   9.662 Y -14.471
G2 X  -9.662 Y -14.471 I  -9.662 J  14.471
G1 X -12.961 Y -17.770
G1 X -17.770 Y -12.961
G1 X -14.471 Y  -9.662
G2 X -14.471 Y   9.662 I  14.471 J   9.662
G1 X -17.770 Y  12.961
G1 X -12.961 Y  17.770
G1 X  -9.662 Y  14.471
G2 X   9.662 Y  14.471 I   9.662 J -14.471
F150
G1 Z  -6.800
F400
G1 X  12.961 Y  17.770
G1 X  17.770 Y  12.961
G1 X  14.471 Y   9.662
G2 X  14.471 Y  -9.662 I -14.471 J  -9.662
G1 X  17.770 Y -12.961
G1 X  12.961 Y -17.770
G1 X   9.662 Y -14.471
G2 X  -9.662 Y -14.471 I  -9.662 J  14.471
G1 X -12.961 Y -17.770
G1 X -17.770 Y -12.961
G1 X -14.471 Y  -9.662
G2 X -14.471 Y   9.662 I  14.471 J   9.662
G1 X -17.770 Y  12.961
G1 X -12.961 Y  17.770
G1 X  -9.662 Y  14.471
G2 X   9.662 Y  14.471 I   9.662 J -14.471
F150
G1 Z  -7.000
F400
G1 X  12.961 Y  17.770
G1 X  17.770 Y  12.961
G1 X  14.471 Y   9.662
G2 X  14.471 Y  -9.662 I -14.471 J  -9.662
G1 X  17.770 Y -12.961
G1 X  12.961 Y -17.770
G1 X   9.662 Y -14.471
G2 X  -9.662 Y -14.471 I  -9.662 J  14.471
G1 X -12.961 Y -17.770
G1 X -17.770 Y -12.961
G1 X -14.471 Y  -9.662
G2 X -14.471 Y   9.662 I  14.471 J   9.662
G1 X -17.770 Y  12.961
G1 X -12.961 Y  17.770
G1 X  -9.662 Y  14.471
G2 X   9.662 Y  14.471 I   9.662 J -14.471
F150
G1 Z  -7.200
F400
G1 X  12.961 Y  17.770
G1 X  17.770 Y  12.961
G1 X  14.471 Y   9.662
G2 X  14.471 Y  -9.662 I -14.471 J  -9.662
G1 X  17.770 Y -12.961
G1 X  12.961 Y -17.770
G1 X   9.662 Y -14.471
G2 X  -9.662 Y -14.471 I  -9.662 J  14.471
G1 X -12.961 Y -17.770
G1 X -17.770 Y -12.961
G1 X -14.471 Y  -9.662
G2 X -14.471 Y   9.662 I  14.471 J   9.662
G1 X -17.770 Y  12.961
G1 X -12.961 Y  17.770
G1 X  -9.662 Y  14.471
G2 X   9.662 Y  14.471 I   9.662 J -14.471
F150
G1 Z  -7.400
F400
G1 X  12.961 Y  17.770
G1 X  17.770 Y  12.961
G1 X  14.471 Y   9.662
G2 X  14.471 Y  -9.662 I -14.471 J  -9.662
G1 X  17.770 Y -12.961
G1 X  12.961 Y -17.770
G1 X   9.662 Y -14.471
G2 X  -9.662 Y -14.471 I  -9.662 J  14.471
G1 X -12.961 Y -17.770
G1 X -17.770 Y -12.961
G1 X -14.471 Y  -9.662
G2 X -14.471 Y   9.662 I  14.471 J   9.662
G1 X -17.770 Y  12.961
G1 X -12.961 Y  17.770
G1 X  -9.662 Y  14.471
G2 X   9.662 Y  14.471 I   9.662 J -14.471
F150
G1 Z  -7.600
F400
G1 X  12.961 Y  17.770
G1 X  17.770 Y  12.961
G1 X  14.471 Y   9.662
G2 X  14.471 Y  -9.662 I -14.471 J  -9.662
G1 X  17.770 Y -12.961
G1 X  12.961 Y -17.770
G1 X   9.662 Y -14.471
G2 X  -9.662 Y -14.471 I  -9.662 J  14.471
G1 X -12.961 Y -17.770
G1 X -17.770 Y -12.961
G1 X -14.471 Y  -9.662
G2 X -14.471 Y   9.662 I  14.471 J   9.662
G1 X -17.770 Y  12.961
G1 X -12.961 Y  17.770
G1 X  -9.662 Y  14.471
G2 X   9.662 Y  14.471 I   9.662 J -14.471
F150
G1 Z  -7.800
F400
G1 X  12.961 Y  17.770
G1 X  17.770 Y  12.961
G1 X  14.471 Y   9.662
G2 X  14.471 Y  -9.662 I -14.471 J  -9.662
G1 X  17.770 Y -12.961
G1 X  12.961 Y -17.770
G1 X   9.662 Y -14.471
G2 X  -9.662 Y -14.471 I  -9.662 J  14.471
G1 X -12.961 Y -17.770
G1 X -17.770 Y -12.961
G1 X -14.471 Y  -9.662
G2 X -14.471 Y   9.662 I  14.471 J   9.662
G1 X -17.770 Y  12.961
G1 X -12.961 Y  17.770
G1 X  -9.662 Y  14.471
G2 X   9.662 Y  14.471 I   9.662 J -14.471
F150
G1 Z  -8.000
F400
G1 X  12.961 Y  17.770
G1 X  17.770 Y  12.961
G1 X  14.471 Y   9.662
G2 X  14.471 Y  -9.662 I -14.471 J  -9.662
G1 X  17.770 Y -12.961
G1 X  12.961 Y -17.770
G1 X   9.662 Y -14.471
G2 X  -9.662 Y -14.471 I  -9.662 J  14.471
G1 X -12.961 Y -17.770
G1 X -17.770 Y -12.961
G1 X -14.471 Y  -9.662
G2 X -14.471 Y   9.662 I  14.471 J   9.662
G1 X -17.770 Y  12.961
G1 X -12.961 Y  17.770
G1 X  -9.662 Y  14.471
G2 X   9.662 Y  14.471 I   9.662 J -14.471
F150
G1 Z  -8.200
F400
G1 X  12.961 Y  17.770
G1 X  17.770 Y  12.961
G1 X  14.471 Y   9.662
G2 X  14.471 Y  -9.662 I -14.471 J  -9.662
G1 X  17.770 Y -12.961
G1 X  12.961 Y -17.770
G1 X   9.662 Y -14.471
G2 X  -9.662 Y -14.471 I  -9.662 J  14.471
G1 X -12.961 Y -17.770
G1 X -17.770 Y -12.961
G1 X -14.471 Y  -9.662
G2 X -14.471 Y   9.662 I  14.471 J   9.662
G1 X -17.770 Y  12.961
G1 X -12.961 Y  17.770
G1 X  -9.662 Y  14.471
G2 X   9.662 Y  14.471 I   9.662 J -14.471
F150
G1 Z  -8.400
F400
G1 X  12.961 Y  17.770
G1 X  17.770 Y  12.961
G1 X  14.471 Y   9.662
G2 X  14.471 Y  -9.662 I -14.471 J  -9.662
G1 X  17.770 Y -12.961
G1 X  12.961 Y -17.770
G1 X   9.662 Y -14.471
G2 X  -9.662 Y -14.471 I  -9.662 J  14.471
G1 X -12.961 Y -17.770
G1 X -17.770 Y -12.961
G1 X -14.471 Y  -9.662
G2 X -14.471 Y   9.662 I  14.471 J   9.662
G1 X -17.770 Y  12.961
G1 X -12.961 Y  17.770
G1 X  -9.662 Y  14.471
G2 X   9.662 Y  14.471 I   9.662 J -14.471
F150
G1 Z  -8.600
F400
G1 X  12.961 Y  17.770
G1 X  17.770 Y  12.961
G1 X  14.471 Y   9.662
G2 X  14.471 Y  -9.662 I -14.471 J  -9.662
G1 X  17.770 Y -12.961
G1 X  12.961 Y -17.770
G1 X   9.662 Y -14.471
G2 X  -9.662 Y -14.471 I  -9.662 J  14.471
G1 X -12.961 Y -17.770
G1 X -17.770 Y -12.961
G1 X -14.471 Y  -9.662
G2 X -14.471 Y   9.662 I  14.471 J   9.662
G1 X -17.770 Y  12.961
G1 X -12.961 Y  17.770
G1 X  -9.662 Y  14.471
G2 X   9.662 Y  14.471 I   9.662 J -14.471
F150
G1 Z  -8.800
F400
G1 X  12.961 Y  17.770
G1 X  17.770 Y  12.961
G1 X  14.471 Y   9.662
G2 X  14.471 Y  -9.662 I -14.471 J  -9.662
G1 X  17.770 Y -12.961
G1 X  12.961 Y -17.770
G1 X   9.662 Y -14.471
G2 X  -9.662 Y -14.471 I  -9.662 J  14.471
G1 X -12.961 Y -17.770
G1 X -17.770 Y -12.961
G1 X -14.471 Y  -9.662
G2 X -14.471 Y   9.662 I  14.471 J   9.662
G1 X -17.770 Y  12.961
G1 X -12.961 Y  17.770
G1 X  -9.662 Y  14.471
G2 X   9.662 Y  14.471 I   9.662 J -14.471
F150
G1 Z  -9.000
F400
G1 X  12.961 Y  17.770
G1 X  17.770 Y  12.961
G1 X  14.471 Y   9.662
G2 X  14.471 Y  -9.662 I -14.471 J  -9.662
G1 X  17.770 Y -12.961
G1 X  12.961 Y -17.770
G1 X   9.662 Y -14.471
G2 X  -9.662 Y -14.471 I  -9.662 J  14.471
G1 X -12.961 Y -17.770
G1 X -17.770 Y -12.961
G1 X -14.471 Y  -9.662
G2 X -14.471 Y   9.662 I  14.471 J   9.662
G1 X -17.770 Y  12.961
G1 X -12.961 Y  17.770
G1 X  -9.662 Y  14.471
G2 X   9.662 Y  14.471 I   9.662 J -14.471
F150
G1 Z  -9.200
F400
G1 X  12.961 Y  17.770
G1 X  17.770 Y  12.961
G1 X  14.471 Y   9.662
G2 X  14.471 Y  -9.662 I -14.471 J  -9.662
G1 X  17.770 Y -12.961
G1 X  12.961 Y -17.770
G1 X   9.662 Y -14.471
G2 X  -9.662 Y -14.471 I  -9.662 J  14.471
G1 X -12.961 Y -17.770
G1 X -17.770 Y -12.961
G1 X -14.471 Y  -9.662
G2 X -14.471 Y   9.662 I  14.471 J   9.662
G1 X -17.770 Y  12.961
G1 X -12.961 Y  17.770
G1 X  -9.662 Y  14.471
G2 X   9.662 Y  14.471 I   9.662 J -14.471
F150
G1 Z  -9.400
F400
G1 X  12.961 Y  17.770
G1 X  17.770 Y  12.961
G1 X  14.471 Y   9.662
G2 X  14.471 Y  -9.662 I -14.471 J  -9.662
G1 X  17.770 Y -12.961
G1 X  12.961 Y -17.770
G1 X   9.662 Y -14.471
G2 X  -9.662 Y -14.471 I  -9.662 J  14.471
G1 X -12.961 Y -17.770
G1 X -17.770 Y -12.961
G1 X -14.471 Y  -9.662
G2 X -14.471 Y   9.662 I  14.471 J   9.662
G1 X -17.770 Y  12.961
G1 X -12.961 Y  17.770
G1 X  -9.662 Y  14.471
G2 X   9.662 Y  14.471 I   9.662 J -14.471
F150
G1 Z  -9.600
F400
G1 X  12.961 Y  17.770
G1 X  17.770 Y  12.961
G1 X  14.471 Y   9.662
G2 X  14.471 Y  -9.662 I -14.471 J  -9.662
G1 X  17.770 Y -12.961
G1 X  12.961 Y -17.770
G1 X   9.662 Y -14.471
G2 X  -9.662 Y -14.471 I  -9.662 J  14.471
G1 X -12.961 Y -17.770
G1 X -17.770 Y -12.961
G1 X -14.471 Y  -9.662
G2 X -14.471 Y   9.662 I  14.471 J   9.662
G1 X -17.770 Y  12.961
G1 X -12.961 Y  17.770
G1 X  -9.662 Y  14.471
G2 X   9.662 Y  14.471 I   9.662 J -14.471
F150
G1 Z  -9.800
F400
G1 X  12.961 Y  17.770
G1 X  17.770 Y  12.961
G1 X  14.471 Y   9.662
G2 X  14.471 Y  -9.662 I -14.471 J  -9.662
G1 X  17.770 Y -12.961
G1 X  12.961 Y -17.770
G1 X   9.662 Y -14.471
G2 X  -9.662 Y -14.471 I  -9.662 J  14.471
G1 X -12.961 Y -17.770
G1 X -17.770 Y -12.961
G1 X -14.471 Y  -9.662
G2 X -14.471 Y   9.662 I  14.471 J   9.662
G1 X -17.770 Y  12.961
G1 X -12.961 Y  17.770
G1 X  -9.662 Y  14.471
G2 X   9.662 Y  14.471 I   9.662 J -14.471
F150
G1 Z -10.000
F400
G1 X  12.961 Y  17.770
G1 X  17.770 Y  12.961
G1 X  14.471 Y   9.662
G2 X  14.471 Y  -9.662 I -14.471 J  -9.662
G1 X  17.770 Y -12.961
G1 X  12.961 Y -17.770
G1 X   9.662 Y -14.471
G2 X  -9.662 Y -14.471 I  -9.662 J  14.471
G1 X -12.961 Y -17.770
G1 X -17.770 Y -12.961
G1 X -14.471 Y  -9.662
G2 X -14.471 Y   9.662 I  14.471 J   9.662
G1 X -17.770 Y  12.961
G1 X -12.961 Y  17.770
G1 X  -9.662 Y  14.471
G2 X   9.662 Y  14.471 I   9.662 J -14.471
F150
G1 Z -10.200
F400
G1 X  12.961 Y  17.770
G1 X  17.770 Y  12.961
G1 X  14.471 Y   9.662
G2 X  14.471 Y  -9.662 I -14.471 J  -9.662
G1 X  17.770 Y -12.961
G1 X  12.961 Y -17.770
G1 X   9.662 Y -14.471
G2 X  -9.662 Y -14.471 I  -9.662 J  14.471
G1 X -12.961 Y -17.770
G1 X -17.770 Y -12.961
G1 X -14.471 Y  -9.662
G2 X -14.471 Y   9.662 I  14.471 J   9.662
G1 X -17.770 Y  12.961
G1 X -12.961 Y  17.770
G1 X  -9.662 Y  14.471
G2 X   9.662 Y  14.471 I   9.662 J -14.471
F150
G1 Z -10.400
F400
G1 X  12.961 Y  17.770
G1 X  17.770 Y  12.961
G1 X  14.471 Y   9.662
G2 X  14.471 Y  -9.662 I -14.471 J  -9.662
G1 X  17.770 Y -12.961
G1 X  12.961 Y -17.770
G1 X   9.662 Y -14.471
G2 X  -9.662 Y -14.471 I  -9.662 J  14.471
G1 X -12.961 Y -17.770
G1 X -17.770 Y -12.961
G1 X -14.471 Y  -9.662
G2 X -14.471 Y   9.662 I  14.471 J   9.662
G1 X -17.770 Y  12.961
G1 X -12.961 Y  17.770
G1 X  -9.662 Y  14.471
G2 X   9.662 Y  14.471 I   9.662 J -14.471
F150
G1 Z -10.600
F400
G1 X  12.961 Y  17.770
G1 X  17.770 Y  12.961
G1 X  14.471 Y   9.662
G2 X  14.471 Y  -9.662 I -14.471 J  -9.662
G1 X  17.770 Y -12.961
G1 X  12.961 Y -17.770
G1 X   9.662 Y -14.471
G2 X  -9.662 Y -14.471 I  -9.662 J  14.471
G1 X -12.961 Y -17.770
G1 X -17.770 Y -12.961
G1 X -14.471 Y  -9.662
G2 X -14.471 Y   9.662 I  14.471 J   9.662
G1 X -17.770 Y  12.961
G1 X -12.961 Y  17.770
G1 X  -9.662 Y  14.471
G2 X   9.662 Y  14.471 I   9.662 J -14.471
F150
G1 Z -10.800
F400
G1 X  12.961 Y  17.770
G1 X  17.770 Y  12.961
G1 X  14.471 Y   9.662
G2 X  14.471 Y  -9.662 I -14.471 J  -9.662
G1 X  17.770 Y -12.961
G1 X  12.961 Y -17.770
G1 X   9.662 Y -14.471
G2 X  -9.662 Y -14.471 I  -9.662 J  14.471
G1 X -12.961 Y -17.770
G1 X -17.770 Y -12.961
G1 X -14.471 Y  -9.662
G2 X -14.471 Y   9.662 I  14.471 J   9.662
G1 X -17.770 Y  12.961
G1 X -12.961 Y  17.770
G1 X  -9.662 Y  14.471
G2 X   9.662 Y  14.471 I   9.662 J -14.471
F150
G1 Z -11.000
F400
G1 X  12.961 Y  17.770
G1 X  17.770 Y  12.961
G1 X  14.471 Y   9.662
G2 X  14.471 Y  -9.662 I -14.471 J  -9.662
G1 X  17.770 Y -12.961
G1 X  12.961 Y -17.770
G1 X   9.662 Y -14.471
G2 X  -9.662 Y -14.471 I  -9.662 J  14.471
G1 X -12.961 Y -17.770
G1 X -17.770 Y -12.961
G1 X -14.471 Y  -9.662
G2 X -14.471 Y   9.662 I  14.471 J   9.662
G1 X -17.770 Y  12.961
G1 X -12.961 Y  17.770
G1 X  -9.662 Y  14.471
G2 X   9.662 Y  14.471 I   9.662 J -14.471
F150
G1 Z -11.200
F400
G1 X  12.961 Y  17.770
G1 X  17.770 Y  12.961
G1 X  14.471 Y   9.662
G2 X  14.471 Y  -9.662 I -14.471 J  -9.662
G1 X  17.770 Y -12.961
G1 X  12.961 Y -17.770
G1 X   9.662 Y -14.471
G2 X  -9.662 Y -14.471 I  -9.662 J  14.471
G1 X -12.961 Y -17.770
G1 X -17.770 Y -12.961
G1 X -14.471 Y  -9.662
G2 X -14.471 Y   9.662 I  14.471 J   9.662
G1 X -17.770 Y  12.961
G1 X -12.961 Y  17.770
G1 X  -9.662 Y  14.471
G2 X   9.662 Y  14.471 I   9.662 J -14.471
F150
G1 Z -11.400
F400
G1 X  12.961 Y  17.770
G1 X  17.770 Y  12.961
G1 X  14.471 Y   9.662
G2 X  14.471 Y  -9.662 I -14.471 J  -9.662
G1 X  17.770 Y -12.961
G1 X  12.961 Y -17.770
G1 X   9.662 Y -14.471
G2 X  -9.662 Y -14.471 I  -9.662 J  14.471
G1 X -12.961 Y -17.770
G1 X -17.770 Y -12.961
G1 X -14.471 Y  -9.662
G2 X -14.471 Y   9.662 I  14.471 J   9.662
G1 X -17.770 Y  12.961
G1 X -12.961 Y  17.770
G1 X  -9.662 Y  14.471
G2 X   9.662 Y  14.471 I   9.662 J -14.471
F150
G1 Z -11.600
F400
G1 X  12.961 Y  17.770
G1 X  17.770 Y  12.961
G1 X  14.471 Y   9.662
G2 X  14.471 Y  -9.662 I -14.471 J  -9.662
G1 X  17.770 Y -12.961
G1 X  12.961 Y -17.770
G1 X   9.662 Y -14.471
G2 X  -9.662 Y -14.471 I  -9.662 J  14.471
G1 X -12.961 Y -17.770
G1 X -17.770 Y -12.961
G1 X -14.471 Y  -9.662
G2 X -14.471 Y   9.662 I  14.471 J   9.662
G1 X -17.770 Y  12.961
G1 X -12.961 Y  17.770
G1 X  -9.662 Y  14.471
G2 X   9.662 Y  14.471 I   9.662 J -14.471
F150
G1 Z -11.800
F400
G1 X  12.961 Y  17.770
G1 X  17.770 Y  12.961
G1 X  14.471 Y   9.662
G2 X  14.471 Y  -9.662 I -14.471 J  -9.662
G1 X  17.770 Y -12.961
G1 X  12.961 Y -17.770
G1 X   9.662 Y -14.471
G2 X  -9.662 Y -14.471 I  -9.662 J  14.471
G1 X -12.961 Y -17.770
G1 X -17.770 Y -12.961
G1 X -14.471 Y  -9.662
G2 X -14.471 Y   9.662 I  14.471 J   9.662
G1 X -17.770 Y  12.961
G1 X -12.961 Y  17.770
G1 X  -9.662 Y  14.471
G2 X   9.662 Y  14.471 I   9.662 J -14.471
F150
G1 Z -12.000
F400
G1 X  12.961 Y  17.770
G1 X  17.770 Y  12.961
G1 X  14.471 Y   9.662
G2 X  14.471 Y  -9.662 I -14.471 J  -9.662
G1 X  17.770 Y -12.961
G1 X  12.961 Y -17.770
G1 X   9.662 Y -14.471
G2 X  -9.662 Y -14.471 I  -9.662 J  14.471
G1 X -12.961 Y -17.770
G1 X -17.770 Y -12.961
G1 X -14.471 Y  -9.662
G2 X -14.471 Y   9.662 I  14.471 J   9.662
G1 X -17.770 Y  12.961
G1 X -12.961 Y  17.770
G1 X  -9.662 Y  14.471
G2 X   9.662 Y  14.471 I   9.662 J -14.471
F150
G1 Z -12.200
F400
G1 X  12.961 Y  17.770
G1 X  17.770 Y  12.961
G1 X  14.471 Y   9.662
G2 X  14.471 Y  -9.662 I -14.471 J  -9.662
G1 X  17.770 Y -12.961
G1 X  12.961 Y -17.770
G1 X   9.662 Y -14.471
G2 X  -9.662 Y -14.471 I  -9.662 J  14.471
G1 X -12.961 Y -17.770
G1 X -17.770 Y -12.961
G1 X -14.471 Y  -9.662
G2 X -14.471 Y   9.662 I  14.471 J   9.662
G1 X -17.770 Y  12.961
G1 X -12.961 Y  17.770
G1 X  -9.662 Y  14.471
G2 X   9.662 Y  14.471 I   9.662 J -14.471
F150
G1 Z -12.400
F400
G1 X  12.961 Y  17.770
G1 X  17.770 Y  12.961
G1 X  14.471 Y   9.662
G2 X  14.471 Y  -9.662 I -14.471 J  -9.662
G1 X  17.770 Y -12.961
G1 X  12.961 Y -17.770
G1 X   9.662 Y -14.471
G2 X  -9.662 Y -14.471 I  -9.662 J  14.471
G1 X -12.961 Y -17.770
G1 X -17.770 Y -12.961
G1 X -14.471 Y  -9.662
G2 X -14.471 Y   9.662 I  14.471 J   9.662
G1 X -17.770 Y  12.961
G1 X -12.961 Y  17.770
G1 X  -9.662 Y  14.471
G2 X   9.662 Y  14.471 I   9.662 J -14.471
F150
G1 Z -12.600
F400
G1 X  12.961 Y  17.770
G1 X  17.770 Y  12.961
G1 X  14.471 Y   9.662
G2 X  14.471 Y  -9.662 I -14.471 J  -9.662
G1 X  17.770 Y -12.961
G1 X  12.961 Y -17.770
G1 X   9.662 Y -14.471
G2 X  -9.662 Y -14.471 I  -9.662 J  14.471
G1 X -12.961 Y -17.770
G1 X -17.770 Y -12.961
G1 X -14.471 Y  -9.662
G2 X -14.471 Y   9.662 I  14.471 J   9.662
G1 X -17.770 Y  12.961
G1 X -12.961 Y  17.770
G1 X  -9.662 Y  14.471
G2 X   9.662 Y  14.471 I   9.662 J -14.471
F150
G1 Z -12.800
F400
G1 X  12.961 Y  17.770
G1 X  17.770 Y  12.961
G1 X  14.471 Y   9.662
G2 X  14.471 Y  -9.662 I -14.471 J  -9.662
G1 X  17.770 Y -12.961
G1 X  12.961 Y -17.770
G1 X   9.662 Y -14.471
G2 X  -9.662 Y -14.471 I  -9.662 J  14.471
G1 X -12.961 Y -17.770
G1 X -17.770 Y -12.961
G1 X -14.471 Y  -9.662
G2 X -14.471 Y   9.662 I  14.471 J   9.662
G1 X -17.770 Y  12.961
G1 X -12.961 Y  17.770
G1 X  -9.662 Y  14.471
G2 X   9.662 Y  14.471 I   9.662 J -14.471
F150
G1 Z -13.000
F400
G1 X  12.961 Y  17.770
G1 X  17.770 Y  12.961
G1 X  14.471 Y   9.662
G2 X  14.471 Y  -9.662 I -14.471 J  -9.662
G1 X  17.770 Y -12.961
G1 X  12.961 Y -17.770
G1 X   9.662 Y -14.471
G2 X  -9.662 Y -14.471 I  -9.662 J  14.471
G1 X -12.961 Y -17.770
G1 X -17.770 Y -12.961
G1 X -14.471 Y  -9.662
G2 X -14.471 Y   9.662 I  14.471 J   9.662
G1 X -17.770 Y  12.961
G1 X -12.961 Y  17.770
G1 X  -9.662 Y  14.471
G2 X   9.662 Y  14.471 I   9.662 J -14.471
F150
G1 Z -13.200
F400
G1 X  12.961 Y  17.770
G1 X  17.770 Y  12.961
G1 X  14.471 Y   9.662
G2 X  14.471 Y  -9.662 I -14.471 J  -9.662
G1 X  17.770 Y -12.961
G1 X  12.961 Y -17.770
G1 X   9.662 Y -14.471
G2 X  -9.662 Y -14.471 I  -9.662 J  14.471
G1 X -12.961 Y -17.770
G1 X -17.770 Y -12.961
G1 X -14.471 Y  -9.662
G2 X -14.471 Y   9.662 I  14.471 J   9.662
G1 X -17.770 Y  12.961
G1 X -12.961 Y  17.770
G1 X  -9.662 Y  14.471
G2 X   9.662 Y  14.471 I   9.662 J -14.471
F150
G1 Z -13.400
F400
G1 X  12.961 Y  17.770
G1 X  17.770 Y  12.961
G1 X  14.471 Y   9.662
G2 X  14.471 Y  -9.662 I -14.471 J  -9.662
G1 X  17.770 Y -12.961
G1 X  12.961 Y -17.770
G1 X   9.662 Y -14.471
G2 X  -9.662 Y -14.471 I  -9.662 J  14.471
G1 X -12.961 Y -17.770
G1 X -17.770 Y -12.961
G1 X -14.471 Y  -9.662
G2 X -14.471 Y   9.662 I  14.471 J   9.662
G1 X -17.770 Y  12.961
G1 X -12.961 Y  17.770
G1 X  -9.662 Y  14.471
G2 X   9.662 Y  14.471 I   9.662 J -14.471
F150
G1 Z -13.600
F400
G1 X  12.961 Y  17.770
G1 X  17.770 Y  12.961
G1 X  14.471 Y   9.662
G2 X  14.471 Y  -9.662 I -14.471 J  -9.662
G1 X  17.770 Y -12.961
G1 X  12.961 Y -17.770
G1 X   9.662 Y -14.471
G2 X  -9.662 Y -14.471 I  -9.662 J  14.471
G1 X -12.961 Y -17.770
G1 X -17.770 Y -12.961
G1 X -14.471 Y  -9.662
G2 X -14.471 Y   9.662 I  14.471 J   9.662
G1 X -17.770 Y  12.961
G1 X -12.961 Y  17.770
G1 X  -9.662 Y  14.471
G2 X   9.662 Y  14.471 I   9.662 J -14.471
F150
G1 Z -13.800
F400
G1 X  12.961 Y  17.770
G1 X  17.770 Y  12.961
G1 X  14.471 Y   9.662
G2 X  14.471 Y  -9.662 I -14.471 J  -9.662
G1 X  17.770 Y -12.961
G1 X  12.961 Y -17.770
G1 X   9.662 Y -14.471
G2 X  -9.662 Y -14.471 I  -9.662 J  14.471
G1 X -12.961 Y -17.770
G1 X -17.770 Y -12.961
G1 X -14.471 Y  -9.662
G2 X -14.471 Y   9.662 I  14.471 J   9.662
G1 X -17.770 Y  12.961
G1 X -12.961 Y  17.770
G1 X  -9.662 Y  14.471
G2 X   9.662 Y  14.471 I   9.662 J -14.471
F150
G1 Z -14.000
F400
G1 X  12.961 Y  17.770
G1 X  17.770 Y  12.961
G1 X  14.471 Y   9.662
G2 X  14.471 Y  -9.662 I -14.471 J  -9.662
G1 X  17.770 Y -12.961
G1 X  12.961 Y -17.770
G1 X   9.662 Y -14.471
G2 X  -9.662 Y -14.471 I  -9.662 J  14.471
G1 X -12.961 Y -17.770
G1 X -17.770 Y -12.961
G1 X -14.471 Y  -9.662
G2 X -14.471 Y   9.662 I  14.471 J   9.662
G1 X -17.770 Y  12.961
G1 X -12.961 Y  17.770
G1 X  -9.662 Y  14.471
G2 X   9.662 Y  14.471 I   9.662 J -14.471
F150
G1 Z -14.200
F400
G1 X  12.961 Y  17.770
G1 X  17.770 Y  12.961
G1 X  14.471 Y   9.662
G2 X  14.471 Y  -9.662 I -14.471 J  -9.662
G1 X  17.770 Y -12.961
G1 X  12.961 Y -17.770
G1 X   9.662 Y -14.471
G2 X  -9.662 Y -14.471 I  -9.662 J  14.471
G1 X -12.961 Y -17.770
G1 X -17.770 Y -12.961
G1 X -14.471 Y  -9.662
G2 X -14.471 Y   9.662 I  14.471 J   9.662
G1 X -17.770 Y  12.961
G1 X -12.961 Y  17.770
G1 X  -9.662 Y  14.471
G2 X   9.662 Y  14.471 I   9.662 J -14.471
F150
G1 Z -14.400
F400
G1 X  12.961 Y  17.770
G1 X  17.770 Y  12.961
G1 X  14.471 Y   9.662
G2 X  14.471 Y  -9.662 I -14.471 J  -9.662
G1 X  17.770 Y -12.961
G1 X  12.961 Y -17.770
G1 X   9.662 Y -14.471
G2 X  -9.662 Y -14.471 I  -9.662 J  14.471
G1 X -12.961 Y -17.770
G1 X -17.770 Y -12.961
G1 X -14.471 Y  -9.662
G2 X -14.471 Y   9.662 I  14.471 J   9.662
G1 X -17.770 Y  12.961
G1 X -12.961 Y  17.770
G1 X  -9.662 Y  14.471
G2 X   9.662 Y  14.471 I   9.662 J -14.471
F150
G1 Z -14.600
F400
G1 X  12.961 Y  17.770
G1 X  17.770 Y  12.961
G1 X  14.471 Y   9.662
G2 X  14.471 Y  -9.662 I -14.471 J  -9.662
G1 X  17.770 Y -12.961
G1 X  12.961 Y -17.770
G1 X   9.662 Y -14.471
G2 X  -9.662 Y -14.471 I  -9.662 J  14.471
G1 X -12.961 Y -17.770
G1 X -17.770 Y -12.961
G1 X -14.471 Y  -9.662
G2 X -14.471 Y   9.662 I  14.471 J   9.662
G1 X -17.770 Y  12.961
G1 X -12.961 Y  17.770
G1 X  -9.662 Y  14.471
G2 X   9.662 Y  14.471 I   9.662 J -14.471
F150
G1 Z -14.800
F400
G1 X  12.961 Y  17.770
G1 X  17.770 Y  12.961
G1 X  14.471 Y   9.662
G2 X  14.471 Y  -9.662 I -14.471 J  -9.662
G1 X  17.770 Y -12.961
G1 X  12.961 Y -17.770
G1 X   9.662 Y -14.471
G2 X  -9.662 Y -14.471 I  -9.662 J  14.471
G1 X -12.961 Y -17.770
G1 X -17.770 Y -12.961
G1 X -14.471 Y  -9.662
G2 X -14.471 Y   9.662 I  14.471 J   9.662
G1 X -17.770 Y  12.961
G1 X -12.961 Y  17.770
G1 X  -9.662 Y  14.471
G2 X   9.662 Y  14.471 I   9.662 J -14.471
F150
G1 Z -15.000
F400
G1 X  12.961 Y  17.770
G1 X  17.770 Y  12.961
G1 X  14.471 Y   9.662
G2 X  14.471 Y  -9.662 I -14.471 J  -9.662
G1 X  17.770 Y -12.961
G1 X  12.961 Y -17.770
G1 X   9.662 Y -14.471
G2 X  -9.662 Y -14.471 I  -9.662 J  14.471
G1 X -12.961 Y -17.770
G1 X -17.770 Y -12.961
G1 X -14.471 Y  -9.662
G2 X -14.471 Y   9.662 I  14.471 J   9.662
G1 X -17.770 Y  12.961
G1 X -12.961 Y  17.770
G1 X  -9.662 Y  14.471
G2 X   9.662 Y  14.471 I   9.662 J -14.471
F150
G1 Z -15.200
F400
G1 X  12.961 Y  17.770
G1 X  17.770 Y  12.961
G1 X  14.471 Y   9.662
G2 X  14.471 Y  -9.662 I -14.471 J  -9.662
G1 X  17.770 Y -12.961
G1 X  12.961 Y -17.770
G1 X   9.662 Y -14.471
G2 X  -9.662 Y -14.471 I  -9.662 J  14.471
G1 X -12.961 Y -17.770
G1 X -17.770 Y -12.961
G1 X -14.471 Y  -9.662
G2 X -14.471 Y   9.662 I  14.471 J   9.662
G1 X -17.770 Y  12.961
G1 X -12.961 Y  17.770
G1 X  -9.662 Y  14.471
G2 X   9.662 Y  14.471 I   9.662 J -14.471
F150
G1 Z -15.400
F400
G1 X  12.961 Y  17.770
G1 X  17.770 Y  12.961
G1 X  14.471 Y   9.662
G2 X  14.471 Y  -9.662 I -14.471 J  -9.662
G1 X  17.770 Y -12.961
G1 X  12.961 Y -17.770
G1 X   9.662 Y -14.471
G2 X  -9.662 Y -14.471 I  -9.662 J  14.471
G1 X -12.961 Y -17.770
G1 X -17.770 Y -12.961
G1 X -14.471 Y  -9.662
G2 X -14.471 Y   9.662 I  14.471 J   9.662
G1 X -17.770 Y  12.961
G1 X -12.961 Y  17.770
G1 X  -9.662 Y  14.471
G2 X   9.662 Y  14.471 I   9.662 J -14.471
F150
G1 Z -15.600
F400
G1 X  12.961 Y  17.770
G1 X  17.770 Y  12.961
G1 X  14.471 Y   9.662
G2 X  14.471 Y  -9.662 I -14.471 J  -9.662
G1 X  17.770 Y -12.961
G1 X  12.961 Y -17.770
G1 X   9.662 Y -14.471
G2 X  -9.662 Y -14.471 I  -9.662 J  14.471
G1 X -12.961 Y -17.770
G1 X -17.770 Y -12.961
G1 X -14.471 Y  -9.662
G2 X -14.471 Y   9.662 I  14.471 J   9.662
G1 X -17.770 Y  12.961
G1 X -12.961 Y  17.770
G1 X  -9.662 Y  14.471
G2 X   9.662 Y  14.471 I   9.662 J -14.471
F150
G1 Z -15.800
F400
G1 X  12.961 Y  17.770
G1 X  17.770 Y  12.961
G1 X  14.471 Y   9.662
G2 X  14.471 Y  -9.662 I -14.471 J  -9.662
G1 X  17.770 Y -12.961
G1 X  12.961 Y -17.770
G1 X   9.662 Y -14.471
G2 X  -9.662 Y -14.471 I  -9.662 J  14.471
G1 X -12.961 Y -17.770
G1 X -17.770 Y -12.961
G1 X -14.471 Y  -9.662
G2 X -14.471 Y   9.662 I  14.471 J   9.662
G1 X -17.770 Y  12.961
G1 X -12.961 Y  17.770
G1 X  -9.662 Y  14.471
G2 X   9.662 Y  14.471 I   9.662 J -14.471
F150
G1 Z -16.000
F400
G1 X  12.961 Y  17.770
G1 X  17.770 Y  12.961
G1 X  14.471 Y   9.662
G2 X  14.471 Y  -9.662 I -14.471 J  -9.662
G1 X  17.770 Y -12.961
G1 X  12.961 Y -17.770
G1 X   9.662 Y -14.471
G2 X  -9.662 Y -14.471 I  -9.662 J  14.471
G1 X -12.961 Y -17.770
G1 X -17.770 Y -12.961
G1 X -14.471 Y  -9.662
G2 X -14.471 Y   9.662 I  14.471 J   9.662
G1 X -17.770 Y  12.961
G1 X -12.961 Y  17.770
G1 X  -9.662 Y  14.471
G2 X   9.662 Y  14.471 I   9.662 J -14.471
F150
G1 Z -16.200
F400
G1 X  12.961 Y  17.770
G1 X  17.770 Y  12.961
G1 X  14.471 Y   9.662
G2 X  14.471 Y  -9.662 I -14.471 J  -9.662
G1 X  17.770 Y -12.961
G1 X  12.961 Y -17.770
G1 X   9.662 Y -14.471
G2 X  -9.662 Y -14.471 I  -9.662 J  14.471
G1 X -12.961 Y -17.770
G1 X -17.770 Y -12.961
G1 X -14.471 Y  -9.662
G2 X -14.471 Y   9.662 I  14.471 J   9.662
G1 X -17.770 Y  12.961
G1 X -12.961 Y  17.770
G1 X  -9.662 Y  14.471
G2 X   9.662 Y  14.471 I   9.662 J -14.471
F150
G1 Z -16.400
F400
G1 X  12.961 Y  17.770
G1 X  17.770 Y  12.961
G1 X  14.471 Y   9.662
G2 X  14.471 Y  -9.662 I -14.471 J  -9.662
G1 X  17.770 Y -12.961
G1 X  12.961 Y -17.770
G1 X   9.662 Y -14.471
G2 X  -9.662 Y -14.471 I  -9.662 J  14.471
G1 X -12.961 Y -17.770
G1 X -17.770 Y -12.961
G1 X -14.471 Y  -9.662
G2 X -14.471 Y   9.662 I  14.471 J   9.662
G1 X -17.770 Y  12.961
G1 X -12.961 Y  17.770
G1 X  -9.662 Y  14.471
G2 X   9.662 Y  14.471 I   9.662 J -14.471
F150
G1 Z -16.600
F400
G1 X  12.961 Y  17.770
G1 X  17.770 Y  12.961
G1 X  14.471 Y   9.662
G2 X  14.471 Y  -9.662 I -14.471 J  -9.662
G1 X  17.770 Y -12.961
G1 X  12.961 Y -17.770
G1 X   9.662 Y -14.471
G2 X  -9.662 Y -14.471 I  -9.662 J  14.471
G1 X -12.961 Y -17.770
G1 X -17.770 Y -12.961
G1 X -14.471 Y  -9.662
G2 X -14.471 Y   9.662 I  14.471 J   9.662
G1 X -17.770 Y  12.961
G1 X -12.961 Y  17.770
G1 X  -9.662 Y  14.471
G2 X   9.662 Y  14.471 I   9.662 J -14.471
F150
G1 Z -16.800
F400
G1 X  12.961 Y  17.770
G1 X  17.770 Y  12.961
G1 X  14.471 Y   9.662
G2 X  14.471 Y  -9.662 I -14.471 J  -9.662
G1 X  17.770 Y -12.961
G1 X  12.961 Y -17.770
G1 X   9.662 Y -14.471
G2 X  -9.662 Y -14.471 I  -9.662 J  14.471
G1 X -12.961 Y -17.770
G1 X -17.770 Y -12.961
G1 X -14.471 Y  -9.662
G2 X -14.471 Y   9.662 I  14.471 J   9.662
G1 X -17.770 Y  12.961
G1 X -12.961 Y  17.770
G1 X  -9.662 Y  14.471
G2 X   9.662 Y  14.471 I   9.662 J -14.471
F150
G1 Z -17.000
F400
G1 X  12.961 Y  17.770
G1 X  17.770 Y  12.961
G1 X  14.471 Y   9.662
G2 X  14.471 Y  -9.662 I -14.471 J  -9.662
G1 X  17.770 Y -12.961
G1 X  12.961 Y -17.770
G1 X   9.662 Y -14.471
G2 X  -9.662 Y -14.471 I  -9.662 J  14.471
G1 X -12.961 Y -17.770
G1 X -17.770 Y -12.961
G1 X -14.471 Y  -9.662
G2 X -14.471 Y   9.662 I  14.471 J   9.662
G1 X -17.770 Y  12.961
G1 X -12.961 Y  17.770
G1 X  -9.662 Y  14.471
G2 X   9.662 Y  14.471 I   9.662 J -14.471
F150
G1 Z -17.200
F400
G1 X  12.961 Y  17.770
G1 X  17.770 Y  12.961
G1 X  14.471 Y   9.662
G2 X  14.471 Y  -9.662 I -14.471 J  -9.662
G1 X  17.770 Y -12.961
G1 X  12.961 Y -17.770
G1 X   9.662 Y -14.471
G2 X  -9.662 Y -14.471 I  -9.662 J  14.471
G1 X -12.961 Y -17.770
G1 X -17.770 Y -12.961
G1 X -14.471 Y  -9.662
G2 X -14.471 Y   9.662 I  14.471 J   9.662
G1 X -17.770 Y  12.961
G1 X -12.961 Y  17.770
G1 X  -9.662 Y  14.471
G2 X   9.662 Y  14.471 I   9.662 J -14.471
F150
G1 Z -17.400
F400
G1 X  12.961 Y  17.770
G1 X  17.770 Y  12.961
G1 X  14.471 Y   9.662
G2 X  14.471 Y  -9.662 I -14.471 J  -9.662
G1 X  17.770 Y -12.961
G1 X  12.961 Y -17.770
G1 X   9.662 Y -14.471
G2 X  -9.662 Y -14.471 I  -9.662 J  14.471
G1 X -12.961 Y -17.770
G1 X -17.770 Y -12.961
G1 X -14.471 Y  -9.662
G2 X -14.471 Y   9.662 I  14.471 J   9.662
G1 X -17.770 Y  12.961
G1 X -12.961 Y  17.770
G1 X  -9.662 Y  14.471
G2 X   9.662 Y  14.471 I   9.662 J -14.471
F150
G1 Z -17.600
F400
G1 X  12.961 Y  17.770
G1 X  17.770 Y  12.961
G1 X  14.471 Y   9.662
G2 X  14.471 Y  -9.662 I -14.471 J  -9.662
G1 X  17.770 Y -12.961
G1 X  12.961 Y -17.770
G1 X   9.662 Y -14.471
G2 X  -9.662 Y -14.471 I  -9.662 J  14.471
G1 X -12.961 Y -17.770
G1 X -17.770 Y -12.961
G1 X -14.471 Y  -9.662
G2 X -14.471 Y   9.662 I  14.471 J   9.662
G1 X -17.770 Y  12.961
G1 X -12.961 Y  17.770
G1 X  -9.662 Y  14.471
G2 X   9.662 Y  14.471 I   9.662 J -14.471
F150
G1 Z -17.800
F400
G1 X  12.961 Y  17.770
G1 X  17.770 Y  12.961
G1 X  14.471 Y   9.662
G2 X  14.471 Y  -9.662 I -14.471 J  -9.662
G1 X  17.770 Y -12.961
G1 X  12.961 Y -17.770
G1 X   9.662 Y -14.471
G2 X  -9.662 Y -14.471 I  -9.662 J  14.471
G1 X -12.961 Y -17.770
G1 X -17.770 Y -12.961
G1 X -14.471 Y  -9.662
G2 X -14.471 Y   9.662 I  14.471 J   9.662
G1 X -17.770 Y  12.961
G1 X -12.961 Y  17.770
G1 X  -9.662 Y  14.471
G2 X   9.662 Y  14.471 I   9.662 J -14.471
F150
G1 Z -18.000
F400
G1 X  12.961 Y  17.770
G1 X  17.770 Y  12.961
G1 X  14.471 Y   9.662
G2 X  14.471 Y  -9.662 I -14.471 J  -9.662
G1 X  17.770 Y -12.961
G1 X  12.961 Y -17.770
G1 X   9.662 Y -14.471
G2 X  -9.662 Y -14.471 I  -9.662 J  14.471
G1 X -12.961 Y -17.770
G1 X -17.770 Y -12.961
G1 X -14.471 Y  -9.662
G2 X -14.471 Y   9.662 I  14.471 J   9.662
G1 X -17.770 Y  12.961
G1 X -12.961 Y  17.770
G1 X  -9.662 Y  14.471
G2 X   9.662 Y  14.471 I   9.662 J -14.471
F150
G1 Z -18.200
F400
G1 X  12.961 Y  17.770
G1 X  17.770 Y  12.961
G1 X  14.471 Y   9.662
G2 X  14.471 Y  -9.662 I -14.471 J  -9.662
G1 X  17.770 Y -12.961
G1 X  12.961 Y -17.770
G1 X   9.662 Y -14.471
G2 X  -9.662 Y -14.471 I  -9.662 J  14.471
G1 X -12.961 Y -17.770
G1 X -17.770 Y -12.961
G1 X -14.471 Y  -9.662
G2 X -14.471 Y   9.662 I  14.471 J   9.662
G1 X -17.770 Y  12.961
G1 X -12.961 Y  17.770
G1 X  -9.662 Y  14.471
G2 X   9.662 Y  14.471 I   9.662 J -14.471
F150
G1 Z -18.400
F400
G1 X  12.961 Y  17.770
G1 X  17.770 Y  12.961
G1 X  14.471 Y   9.662
G2 X  14.471 Y  -9.662 I -14.471 J  -9.662
G1 X  17.770 Y -12.961
G1 X  12.961 Y -17.770
G1 X   9.662 Y -14.471
G2 X  -9.662 Y -14.471 I  -9.662 J  14.471
G1 X -12.961 Y -17.770
G1 X -17.770 Y -12.961
G1 X -14.471 Y  -9.662
G2 X -14.471 Y   9.662 I  14.471 J   9.662
G1 X -17.770 Y  12.961
G1 X -12.961 Y  17.770
G1 X  -9.662 Y  14.471
G2 X   9.662 Y  14.471 I   9.662 J -14.471
F150
G1 Z -18.600
F400
G1 X  12.961 Y  17.770
G1 X  17.770 Y  12.961
G1 X  14.471 Y   9.662
G2 X  14.471 Y  -9.662 I -14.471 J  -9.662
G1 X  17.770 Y -12.961
G1 X  12.961 Y -17.770
G1 X   9.662 Y -14.471
G2 X  -9.662 Y -14.471 I  -9.662 J  14.471
G1 X -12.961 Y -17.770
G1 X -17.770 Y -12.961
G1 X -14.471 Y  -9.662
G2 X -14.471 Y   9.662 I  14.471 J   9.662
G1 X -17.770 Y  12.961
G1 X -12.961 Y  17.770
G1 X  -9.662 Y  14.471
G2 X   9.662 Y  14.471 I   9.662 J -14.471
F150
G1 Z -18.600
F400
G1 X  12.961 Y  17.770
G1 X  17.770 Y  12.961
G1 X  14.471 Y   9.662
G2 X  14.471 Y  -9.662 I -14.471 J  -9.662
G1 X  17.770 Y -12.961
G1 X  12.961 Y -17.770
G1 X   9.662 Y -14.471
G2 X  -9.662 Y -14.471 I  -9.662 J  14.471
G1 X -12.961 Y -17.770
G1 X -17.770 Y -12.961
G1 X -14.471 Y  -9.662
G2 X -14.471 Y   9.662 I  14.471 J   9.662
G1 X -17.770 Y  12.961
G1 X -12.961 Y  17.770
G1 X  -9.662 Y  14.471
G2 X   9.662 Y  14.471 I   9.662 J -14.471
F150
G1 Z   2.500
G0 Z   5.000 
M9 M5

(* SHAPE Nr: 20 *)
G0 X  20.663 Y -41.600
M3 M8
G0 Z   2.500 
G1 Z  -0.200
F400
G1 X -20.663 Y -41.600
G1 X -41.600 Y -20.663
G1 X -41.600 Y  20.663
G1 X -20.663 Y  41.600
G1 X  20.663 Y  41.600
G1 X  41.600 Y  20.663
G1 X  41.600 Y -20.663
G1 X  20.663 Y -41.600
F150
G1 Z  -0.400
F400
G1 X -20.663 Y -41.600
G1 X -41.600 Y -20.663
G1 X -41.600 Y  20.663
G1 X -20.663 Y  41.600
G1 X  20.663 Y  41.600
G1 X  41.600 Y  20.663
G1 X  41.600 Y -20.663
G1 X  20.663 Y -41.600
F150
G1 Z  -0.600
F400
G1 X -20.663 Y -41.600
G1 X -41.600 Y -20.663
G1 X -41.600 Y  20.663
G1 X -20.663 Y  41.600
G1 X  20.663 Y  41.600
G1 X  41.600 Y  20.663
G1 X  41.600 Y -20.663
G1 X  20.663 Y -41.600
F150
G1 Z  -0.800
F400
G1 X -20.663 Y -41.600
G1 X -41.600 Y -20.663
G1 X -41.600 Y  20.663
G1 X -20.663 Y  41.600
G1 X  20.663 Y  41.600
G1 X  41.600 Y  20.663
G1 X  41.600 Y -20.663
G1 X  20.663 Y -41.600
F150
G1 Z  -1.000
F400
G1 X -20.663 Y -41.600
G1 X -41.600 Y -20.663
G1 X -41.600 Y  20.663
G1 X -20.663 Y  41.600
G1 X  20.663 Y  41.600
G1 X  41.600 Y  20.663
G1 X  41.600 Y -20.663
G1 X  20.663 Y -41.600
F150
G1 Z  -1.200
F400
G1 X -20.663 Y -41.600
G1 X -41.600 Y -20.663
G1 X -41.600 Y  20.663
G1 X -20.663 Y  41.600
G1 X  20.663 Y  41.600
G1 X  41.600 Y  20.663
G1 X  41.600 Y -20.663
G1 X  20.663 Y -41.600
F150
G1 Z  -1.400
F400
G1 X -20.663 Y -41.600
G1 X -41.600 Y -20.663
G1 X -41.600 Y  20.663
G1 X -20.663 Y  41.600
G1 X  20.663 Y  41.600
G1 X  41.600 Y  20.663
G1 X  41.600 Y -20.663
G1 X  20.663 Y -41.600
F150
G1 Z  -1.600
F400
G1 X -20.663 Y -41.600
G1 X -41.600 Y -20.663
G1 X -41.600 Y  20.663
G1 X -20.663 Y  41.600
G1 X  20.663 Y  41.600
G1 X  41.600 Y  20.663
G1 X  41.600 Y -20.663
G1 X  20.663 Y -41.600
F150
G1 Z  -1.800
F400
G1 X -20.663 Y -41.600
G1 X -41.600 Y -20.663
G1 X -41.600 Y  20.663
G1 X -20.663 Y  41.600
G1 X  20.663 Y  41.600
G1 X  41.600 Y  20.663
G1 X  41.600 Y -20.663
G1 X  20.663 Y -41.600
F150
G1 Z  -2.000
F400
G1 X -20.663 Y -41.600
G1 X -41.600 Y -20.663
G1 X -41.600 Y  20.663
G1 X -20.663 Y  41.600
G1 X  20.663 Y  41.600
G1 X  41.600 Y  20.663
G1 X  41.600 Y -20.663
G1 X  20.663 Y -41.600
F150
G1 Z  -2.200
F400
G1 X -20.663 Y -41.600
G1 X -41.600 Y -20.663
G1 X -41.600 Y  20.663
G1 X -20.663 Y  41.600
G1 X  20.663 Y  41.600
G1 X  41.600 Y  20.663
G1 X  41.600 Y -20.663
G1 X  20.663 Y -41.600
F150
G1 Z  -2.400
F400
G1 X -20.663 Y -41.600
G1 X -41.600 Y -20.663
G1 X -41.600 Y  20.663
G1 X -20.663 Y  41.600
G1 X  20.663 Y  41.600
G1 X  41.600 Y  20.663
G1 X  41.600 Y -20.663
G1 X  20.663 Y -41.600
F150
G1 Z  -2.600
F400
G1 X -20.663 Y -41.600
G1 X -41.600 Y -20.663
G1 X -41.600 Y  20.663
G1 X -20.663 Y  41.600
G1 X  20.663 Y  41.600
G1 X  41.600 Y  20.663
G1 X  41.600 Y -20.663
G1 X  20.663 Y -41.600
F150
G1 Z  -2.800
F400
G1 X -20.663 Y -41.600
G1 X -41.600 Y -20.663
G1 X -41.600 Y  20.663
G1 X -20.663 Y  41.600
G1 X  20.663 Y  41.600
G1 X  41.600 Y  20.663
G1 X  41.600 Y -20.663
G1 X  20.663 Y -41.600
F150
G1 Z  -3.000
F400
G1 X -20.663 Y -41.600
G1 X -41.600 Y -20.663
G1 X -41.600 Y  20.663
G1 X -20.663 Y  41.600
G1 X  20.663 Y  41.600
G1 X  41.600 Y  20.663
G1 X  41.600 Y -20.663
G1 X  20.663 Y -41.600
F150
G1 Z  -3.200
F400
G1 X -20.663 Y -41.600
G1 X -41.600 Y -20.663
G1 X -41.600 Y  20.663
G1 X -20.663 Y  41.600
G1 X  20.663 Y  41.600
G1 X  41.600 Y  20.663
G1 X  41.600 Y -20.663
G1 X  20.663 Y -41.600
F150
G1 Z  -3.400
F400
G1 X -20.663 Y -41.600
G1 X -41.600 Y -20.663
G1 X -41.600 Y  20.663
G1 X -20.663 Y  41.600
G1 X  20.663 Y  41.600
G1 X  41.600 Y  20.663
G1 X  41.600 Y -20.663
G1 X  20.663 Y -41.600
F150
G1 Z  -3.600
F400
G1 X -20.663 Y -41.600
G1 X -41.600 Y -20.663
G1 X -41.600 Y  20.663
G1 X -20.663 Y  41.600
G1 X  20.663 Y  41.600
G1 X  41.600 Y  20.663
G1 X  41.600 Y -20.663
G1 X  20.663 Y -41.600
F150
G1 Z  -3.800
F400
G1 X -20.663 Y -41.600
G1 X -41.600 Y -20.663
G1 X -41.600 Y  20.663
G1 X -20.663 Y  41.600
G1 X  20.663 Y  41.600
G1 X  41.600 Y  20.663
G1 X  41.600 Y -20.663
G1 X  20.663 Y -41.600
F150
G1 Z  -4.000
F400
G1 X -20.663 Y -41.600
G1 X -41.600 Y -20.663
G1 X -41.600 Y  20.663
G1 X -20.663 Y  41.600
G1 X  20.663 Y  41.600
G1 X  41.600 Y  20.663
G1 X  41.600 Y -20.663
G1 X  20.663 Y -41.600
F150
G1 Z  -4.200
F400
G1 X -20.663 Y -41.600
G1 X -41.600 Y -20.663
G1 X -41.600 Y  20.663
G1 X -20.663 Y  41.600
G1 X  20.663 Y  41.600
G1 X  41.600 Y  20.663
G1 X  41.600 Y -20.663
G1 X  20.663 Y -41.600
F150
G1 Z  -4.400
F400
G1 X -20.663 Y -41.600
G1 X -41.600 Y -20.663
G1 X -41.600 Y  20.663
G1 X -20.663 Y  41.600
G1 X  20.663 Y  41.600
G1 X  41.600 Y  20.663
G1 X  41.600 Y -20.663
G1 X  20.663 Y -41.600
F150
G1 Z  -4.600
F400
G1 X -20.663 Y -41.600
G1 X -41.600 Y -20.663
G1 X -41.600 Y  20.663
G1 X -20.663 Y  41.600
G1 X  20.663 Y  41.600
G1 X  41.600 Y  20.663
G1 X  41.600 Y -20.663
G1 X  20.663 Y -41.600
F150
G1 Z  -4.800
F400
G1 X -20.663 Y -41.600
G1 X -41.600 Y -20.663
G1 X -41.600 Y  20.663
G1 X -20.663 Y  41.600
G1 X  20.663 Y  41.600
G1 X  41.600 Y  20.663
G1 X  41.600 Y -20.663
G1 X  20.663 Y -41.600
F150
G1 Z  -5.000
F400
G1 X -20.663 Y -41.600
G1 X -41.600 Y -20.663
G1 X -41.600 Y  20.663
G1 X -20.663 Y  41.600
G1 X  20.663 Y  41.600
G1 X  41.600 Y  20.663
G1 X  41.600 Y -20.663
G1 X  20.663 Y -41.600
F150
G1 Z  -5.200
F400
G1 X -20.663 Y -41.600
G1 X -41.600 Y -20.663
G1 X -41.600 Y  20.663
G1 X -20.663 Y  41.600
G1 X  20.663 Y  41.600
G1 X  41.600 Y  20.663
G1 X  41.600 Y -20.663
G1 X  20.663 Y -41.600
F150
G1 Z  -5.400
F400
G1 X -20.663 Y -41.600
G1 X -41.600 Y -20.663
G1 X -41.600 Y  20.663
G1 X -20.663 Y  41.600
G1 X  20.663 Y  41.600
G1 X  41.600 Y  20.663
G1 X  41.600 Y -20.663
G1 X  20.663 Y -41.600
F150
G1 Z  -5.600
F400
G1 X -20.663 Y -41.600
G1 X -41.600 Y -20.663
G1 X -41.600 Y  20.663
G1 X -20.663 Y  41.600
G1 X  20.663 Y  41.600
G1 X  41.600 Y  20.663
G1 X  41.600 Y -20.663
G1 X  20.663 Y -41.600
F150
G1 Z  -5.800
F400
G1 X -20.663 Y -41.600
G1 X -41.600 Y -20.663
G1 X -41.600 Y  20.663
G1 X -20.663 Y  41.600
G1 X  20.663 Y  41.600
G1 X  41.600 Y  20.663
G1 X  41.600 Y -20.663
G1 X  20.663 Y -41.600
F150
G1 Z  -6.000
F400
G1 X -20.663 Y -41.600
G1 X -41.600 Y -20.663
G1 X -41.600 Y  20.663
G1 X -20.663 Y  41.600
G1 X  20.663 Y  41.600
G1 X  41.600 Y  20.663
G1 X  41.600 Y -20.663
G1 X  20.663 Y -41.600
F150
G1 Z  -6.200
F400
G1 X -20.663 Y -41.600
G1 X -41.600 Y -20.663
G1 X -41.600 Y  20.663
G1 X -20.663 Y  41.600
G1 X  20.663 Y  41.600
G1 X  41.600 Y  20.663
G1 X  41.600 Y -20.663
G1 X  20.663 Y -41.600
F150
G1 Z  -6.400
F400
G1 X -20.663 Y -41.600
G1 X -41.600 Y -20.663
G1 X -41.600 Y  20.663
G1 X -20.663 Y  41.600
G1 X  20.663 Y  41.600
G1 X  41.600 Y  20.663
G1 X  41.600 Y -20.663
G1 X  20.663 Y -41.600
F150
G1 Z  -6.600
F400
G1 X -20.663 Y -41.600
G1 X -41.600 Y -20.663
G1 X -41.600 Y  20.663
G1 X -20.663 Y  41.600
G1 X  20.663 Y  41.600
G1 X  41.600 Y  20.663
G1 X  41.600 Y -20.663
G1 X  20.663 Y -41.600
F150
G1 Z  -6.800
F400
G1 X -20.663 Y -41.600
G1 X -41.600 Y -20.663
G1 X -41.600 Y  20.663
G1 X -20.663 Y  41.600
G1 X  20.663 Y  41.600
G1 X  41.600 Y  20.663
G1 X  41.600 Y -20.663
G1 X  20.663 Y -41.600
F150
G1 Z  -7.000
F400
G1 X -20.663 Y -41.600
G1 X -41.600 Y -20.663
G1 X -41.600 Y  20.663
G1 X -20.663 Y  41.600
G1 X  20.663 Y  41.600
G1 X  41.600 Y  20.663
G1 X  41.600 Y -20.663
G1 X  20.663 Y -41.600
F150
G1 Z  -7.200
F400
G1 X -20.663 Y -41.600
G1 X -41.600 Y -20.663
G1 X -41.600 Y  20.663
G1 X -20.663 Y  41.600
G1 X  20.663 Y  41.600
G1 X  41.600 Y  20.663
G1 X  41.600 Y -20.663
G1 X  20.663 Y -41.600
F150
G1 Z  -7.400
F400
G1 X -20.663 Y -41.600
G1 X -41.600 Y -20.663
G1 X -41.600 Y  20.663
G1 X -20.663 Y  41.600
G1 X  20.663 Y  41.600
G1 X  41.600 Y  20.663
G1 X  41.600 Y -20.663
G1 X  20.663 Y -41.600
F150
G1 Z  -7.600
F400
G1 X -20.663 Y -41.600
G1 X -41.600 Y -20.663
G1 X -41.600 Y  20.663
G1 X -20.663 Y  41.600
G1 X  20.663 Y  41.600
G1 X  41.600 Y  20.663
G1 X  41.600 Y -20.663
G1 X  20.663 Y -41.600
F150
G1 Z  -7.800
F400
G1 X -20.663 Y -41.600
G1 X -41.600 Y -20.663
G1 X -41.600 Y  20.663
G1 X -20.663 Y  41.600
G1 X  20.663 Y  41.600
G1 X  41.600 Y  20.663
G1 X  41.600 Y -20.663
G1 X  20.663 Y -41.600
F150
G1 Z  -8.000
F400
G1 X -20.663 Y -41.600
G1 X -41.600 Y -20.663
G1 X -41.600 Y  20.663
G1 X -20.663 Y  41.600
G1 X  20.663 Y  41.600
G1 X  41.600 Y  20.663
G1 X  41.600 Y -20.663
G1 X  20.663 Y -41.600
F150
G1 Z  -8.200
F400
G1 X -20.663 Y -41.600
G1 X -41.600 Y -20.663
G1 X -41.600 Y  20.663
G1 X -20.663 Y  41.600
G1 X  20.663 Y  41.600
G1 X  41.600 Y  20.663
G1 X  41.600 Y -20.663
G1 X  20.663 Y -41.600
F150
G1 Z  -8.400
F400
G1 X -20.663 Y -41.600
G1 X -41.600 Y -20.663
G1 X -41.600 Y  20.663
G1 X -20.663 Y  41.600
G1 X  20.663 Y  41.600
G1 X  41.600 Y  20.663
G1 X  41.600 Y -20.663
G1 X  20.663 Y -41.600
F150
G1 Z  -8.600
F400
G1 X -20.663 Y -41.600
G1 X -41.600 Y -20.663
G1 X -41.600 Y  20.663
G1 X -20.663 Y  41.600
G1 X  20.663 Y  41.600
G1 X  41.600 Y  20.663
G1 X  41.600 Y -20.663
G1 X  20.663 Y -41.600
F150
G1 Z  -8.800
F400
G1 X -20.663 Y -41.600
G1 X -41.600 Y -20.663
G1 X -41.600 Y  20.663
G1 X -20.663 Y  41.600
G1 X  20.663 Y  41.600
G1 X  41.600 Y  20.663
G1 X  41.600 Y -20.663
G1 X  20.663 Y -41.600
F150
G1 Z  -9.000
F400
G1 X -20.663 Y -41.600
G1 X -41.600 Y -20.663
G1 X -41.600 Y  20.663
G1 X -20.663 Y  41.600
G1 X  20.663 Y  41.600
G1 X  41.600 Y  20.663
G1 X  41.600 Y -20.663
G1 X  20.663 Y -41.600
F150
G1 Z  -9.200
F400
G1 X -20.663 Y -41.600
G1 X -41.600 Y -20.663
G1 X -41.600 Y  20.663
G1 X -20.663 Y  41.600
G1 X  20.663 Y  41.600
G1 X  41.600 Y  20.663
G1 X  41.600 Y -20.663
G1 X  20.663 Y -41.600
F150
G1 Z  -9.400
F400
G1 X -20.663 Y -41.600
G1 X -41.600 Y -20.663
G1 X -41.600 Y  20.663
G1 X -20.663 Y  41.600
G1 X  20.663 Y  41.600
G1 X  41.600 Y  20.663
G1 X  41.600 Y -20.663
G1 X  20.663 Y -41.600
F150
G1 Z  -9.600
F400
G1 X -20.663 Y -41.600
G1 X -41.600 Y -20.663
G1 X -41.600 Y  20.663
G1 X -20.663 Y  41.600
G1 X  20.663 Y  41.600
G1 X  41.600 Y  20.663
G1 X  41.600 Y -20.663
G1 X  20.663 Y -41.600
F150
G1 Z  -9.800
F400
G1 X -20.663 Y -41.600
G1 X -41.600 Y -20.663
G1 X -41.600 Y  20.663
G1 X -20.663 Y  41.600
G1 X  20.663 Y  41.600
G1 X  41.600 Y  20.663
G1 X  41.600 Y -20.663
G1 X  20.663 Y -41.600
F150
G1 Z -10.000
F400
G1 X -20.663 Y -41.600
G1 X -41.600 Y -20.663
G1 X -41.600 Y  20.663
G1 X -20.663 Y  41.600
G1 X  20.663 Y  41.600
G1 X  41.600 Y  20.663
G1 X  41.600 Y -20.663
G1 X  20.663 Y -41.600
F150
G1 Z -10.200
F400
G1 X -20.663 Y -41.600
G1 X -41.600 Y -20.663
G1 X -41.600 Y  20.663
G1 X -20.663 Y  41.600
G1 X  20.663 Y  41.600
G1 X  41.600 Y  20.663
G1 X  41.600 Y -20.663
G1 X  20.663 Y -41.600
F150
G1 Z -10.400
F400
G1 X -20.663 Y -41.600
G1 X -41.600 Y -20.663
G1 X -41.600 Y  20.663
G1 X -20.663 Y  41.600
G1 X  20.663 Y  41.600
G1 X  41.600 Y  20.663
G1 X  41.600 Y -20.663
G1 X  20.663 Y -41.600
F150
G1 Z -10.600
F400
G1 X -20.663 Y -41.600
G1 X -41.600 Y -20.663
G1 X -41.600 Y  20.663
G1 X -20.663 Y  41.600
G1 X  20.663 Y  41.600
G1 X  41.600 Y  20.663
G1 X  41.600 Y -20.663
G1 X  20.663 Y -41.600
F150
G1 Z -10.800
F400
G1 X -20.663 Y -41.600
G1 X -41.600 Y -20.663
G1 X -41.600 Y  20.663
G1 X -20.663 Y  41.600
G1 X  20.663 Y  41.600
G1 X  41.600 Y  20.663
G1 X  41.600 Y -20.663
G1 X  20.663 Y -41.600
F150
G1 Z -11.000
F400
G1 X -20.663 Y -41.600
G1 X -41.600 Y -20.663
G1 X -41.600 Y  20.663
G1 X -20.663 Y  41.600
G1 X  20.663 Y  41.600
G1 X  41.600 Y  20.663
G1 X  41.600 Y -20.663
G1 X  20.663 Y -41.600
F150
G1 Z -11.200
F400
G1 X -20.663 Y -41.600
G1 X -41.600 Y -20.663
G1 X -41.600 Y  20.663
G1 X -20.663 Y  41.600
G1 X  20.663 Y  41.600
G1 X  41.600 Y  20.663
G1 X  41.600 Y -20.663
G1 X  20.663 Y -41.600
F150
G1 Z -11.400
F400
G1 X -20.663 Y -41.600
G1 X -41.600 Y -20.663
G1 X -41.600 Y  20.663
G1 X -20.663 Y  41.600
G1 X  20.663 Y  41.600
G1 X  41.600 Y  20.663
G1 X  41.600 Y -20.663
G1 X  20.663 Y -41.600
F150
G1 Z -11.600
F400
G1 X -20.663 Y -41.600
G1 X -41.600 Y -20.663
G1 X -41.600 Y  20.663
G1 X -20.663 Y  41.600
G1 X  20.663 Y  41.600
G1 X  41.600 Y  20.663
G1 X  41.600 Y -20.663
G1 X  20.663 Y -41.600
F150
G1 Z -11.800
F400
G1 X -20.663 Y -41.600
G1 X -41.600 Y -20.663
G1 X -41.600 Y  20.663
G1 X -20.663 Y  41.600
G1 X  20.663 Y  41.600
G1 X  41.600 Y  20.663
G1 X  41.600 Y -20.663
G1 X  20.663 Y -41.600
F150
G1 Z -12.000
F400
G1 X -20.663 Y -41.600
G1 X -41.600 Y -20.663
G1 X -41.600 Y  20.663
G1 X -20.663 Y  41.600
G1 X  20.663 Y  41.600
G1 X  41.600 Y  20.663
G1 X  41.600 Y -20.663
G1 X  20.663 Y -41.600
F150
G1 Z -12.200
F400
G1 X -20.663 Y -41.600
G1 X -41.600 Y -20.663
G1 X -41.600 Y  20.663
G1 X -20.663 Y  41.600
G1 X  20.663 Y  41.600
G1 X  41.600 Y  20.663
G1 X  41.600 Y -20.663
G1 X  20.663 Y -41.600
F150
G1 Z -12.400
F400
G1 X -20.663 Y -41.600
G1 X -41.600 Y -20.663
G1 X -41.600 Y  20.663
G1 X -20.663 Y  41.600
G1 X  20.663 Y  41.600
G1 X  41.600 Y  20.663
G1 X  41.600 Y -20.663
G1 X  20.663 Y -41.600
F150
G1 Z -12.600
F400
G1 X -20.663 Y -41.600
G1 X -41.600 Y -20.663
G1 X -41.600 Y  20.663
G1 X -20.663 Y  41.600
G1 X  20.663 Y  41.600
G1 X  41.600 Y  20.663
G1 X  41.600 Y -20.663
G1 X  20.663 Y -41.600
F150
G1 Z -12.800
F400
G1 X -20.663 Y -41.600
G1 X -41.600 Y -20.663
G1 X -41.600 Y  20.663
G1 X -20.663 Y  41.600
G1 X  20.663 Y  41.600
G1 X  41.600 Y  20.663
G1 X  41.600 Y -20.663
G1 X  20.663 Y -41.600
F150
G1 Z -13.000
F400
G1 X -20.663 Y -41.600
G1 X -41.600 Y -20.663
G1 X -41.600 Y  20.663
G1 X -20.663 Y  41.600
G1 X  20.663 Y  41.600
G1 X  41.600 Y  20.663
G1 X  41.600 Y -20.663
G1 X  20.663 Y -41.600
F150
G1 Z -13.200
F400
G1 X -20.663 Y -41.600
G1 X -41.600 Y -20.663
G1 X -41.600 Y  20.663
G1 X -20.663 Y  41.600
G1 X  20.663 Y  41.600
G1 X  41.600 Y  20.663
G1 X  41.600 Y -20.663
G1 X  20.663 Y -41.600
F150
G1 Z -13.400
F400
G1 X -20.663 Y -41.600
G1 X -41.600 Y -20.663
G1 X -41.600 Y  20.663
G1 X -20.663 Y  41.600
G1 X  20.663 Y  41.600
G1 X  41.600 Y  20.663
G1 X  41.600 Y -20.663
G1 X  20.663 Y -41.600
F150
G1 Z -13.600
F400
G1 X -20.663 Y -41.600
G1 X -41.600 Y -20.663
G1 X -41.600 Y  20.663
G1 X -20.663 Y  41.600
G1 X  20.663 Y  41.600
G1 X  41.600 Y  20.663
G1 X  41.600 Y -20.663
G1 X  20.663 Y -41.600
F150
G1 Z -13.800
F400
G1 X -20.663 Y -41.600
G1 X -41.600 Y -20.663
G1 X -41.600 Y  20.663
G1 X -20.663 Y  41.600
G1 X  20.663 Y  41.600
G1 X  41.600 Y  20.663
G1 X  41.600 Y -20.663
G1 X  20.663 Y -41.600
F150
G1 Z -14.000
F400
G1 X -20.663 Y -41.600
G1 X -41.600 Y -20.663
G1 X -41.600 Y  20.663
G1 X -20.663 Y  41.600
G1 X  20.663 Y  41.600
G1 X  41.600 Y  20.663
G1 X  41.600 Y -20.663
G1 X  20.663 Y -41.600
F150
G1 Z -14.200
F400
G1 X -20.663 Y -41.600
G1 X -41.600 Y -20.663
G1 X -41.600 Y  20.663
G1 X -20.663 Y  41.600
G1 X  20.663 Y  41.600
G1 X  41.600 Y  20.663
G1 X  41.600 Y -20.663
G1 X  20.663 Y -41.600
F150
G1 Z -14.400
F400
G1 X -20.663 Y -41.600
G1 X -41.600 Y -20.663
G1 X -41.600 Y  20.663
G1 X -20.663 Y  41.600
G1 X  20.663 Y  41.600
G1 X  41.600 Y  20.663
G1 X  41.600 Y -20.663
G1 X  20.663 Y -41.600
F150
G1 Z -14.600
F400
G1 X -20.663 Y -41.600
G1 X -41.600 Y -20.663
G1 X -41.600 Y  20.663
G1 X -20.663 Y  41.600
G1 X  20.663 Y  41.600
G1 X  41.600 Y  20.663
G1 X  41.600 Y -20.663
G1 X  20.663 Y -41.600
F150
G1 Z -14.800
F400
G1 X -20.663 Y -41.600
G1 X -41.600 Y -20.663
G1 X -41.600 Y  20.663
G1 X -20.663 Y  41.600
G1 X  20.663 Y  41.600
G1 X  41.600 Y  20.663
G1 X  41.600 Y -20.663
G1 X  20.663 Y -41.600
F150
G1 Z -15.000
F400
G1 X -20.663 Y -41.600
G1 X -41.600 Y -20.663
G1 X -41.600 Y  20.663
G1 X -20.663 Y  41.600
G1 X  20.663 Y  41.600
G1 X  41.600 Y  20.663
G1 X  41.600 Y -20.663
G1 X  20.663 Y -41.600
F150
G1 Z -15.200
F400
G1 X -20.663 Y -41.600
G1 X -41.600 Y -20.663
G1 X -41.600 Y  20.663
G1 X -20.663 Y  41.600
G1 X  20.663 Y  41.600
G1 X  41.600 Y  20.663
G1 X  41.600 Y -20.663
G1 X  20.663 Y -41.600
F150
G1 Z -15.400
F400
G1 X -20.663 Y -41.600
G1 X -41.600 Y -20.663
G1 X -41.600 Y  20.663
G1 X -20.663 Y  41.600
G1 X  20.663 Y  41.600
G1 X  41.600 Y  20.663
G1 X  41.600 Y -20.663
G1 X  20.663 Y -41.600
F150
G1 Z -15.600
F400
G1 X -20.663 Y -41.600
G1 X -41.600 Y -20.663
G1 X -41.600 Y  20.663
G1 X -20.663 Y  41.600
G1 X  20.663 Y  41.600
G1 X  41.600 Y  20.663
G1 X  41.600 Y -20.663
G1 X  20.663 Y -41.600
F150
G1 Z -15.800
F400
G1 X -20.663 Y -41.600
G1 X -41.600 Y -20.663
G1 X -41.600 Y  20.663
G1 X -20.663 Y  41.600
G1 X  20.663 Y  41.600
G1 X  41.600 Y  20.663
G1 X  41.600 Y -20.663
G1 X  20.663 Y -41.600
F150
G1 Z -16.000
F400
G1 X -20.663 Y -41.600
G1 X -41.600 Y -20.663
G1 X -41.600 Y  20.663
G1 X -20.663 Y  41.600
G1 X  20.663 Y  41.600
G1 X  41.600 Y  20.663
G1 X  41.600 Y -20.663
G1 X  20.663 Y -41.600
F150
G1 Z -16.200
F400
G1 X -20.663 Y -41.600
G1 X -41.600 Y -20.663
G1 X -41.600 Y  20.663
G1 X -20.663 Y  41.600
G1 X  20.663 Y  41.600
G1 X  41.600 Y  20.663
G1 X  41.600 Y -20.663
G1 X  20.663 Y -41.600
F150
G1 Z -16.400
F400
G1 X -20.663 Y -41.600
G1 X -41.600 Y -20.663
G1 X -41.600 Y  20.663
G1 X -20.663 Y  41.600
G1 X  20.663 Y  41.600
G1 X  41.600 Y  20.663
G1 X  41.600 Y -20.663
G1 X  20.663 Y -41.600
F150
G1 Z -16.600
F400
G1 X -20.663 Y -41.600
G1 X -41.600 Y -20.663
G1 X -41.600 Y  20.663
G1 X -20.663 Y  41.600
G1 X  20.663 Y  41.600
G1 X  41.600 Y  20.663
G1 X  41.600 Y -20.663
G1 X  20.663 Y -41.600
F150
G1 Z -16.800
F400
G1 X -20.663 Y -41.600
G1 X -41.600 Y -20.663
G1 X -41.600 Y  20.663
G1 X -20.663 Y  41.600
G1 X  20.663 Y  41.600
G1 X  41.600 Y  20.663
G1 X  41.600 Y -20.663
G1 X  20.663 Y -41.600
F150
G1 Z -17.000
F400
G1 X -20.663 Y -41.600
G1 X -41.600 Y -20.663
G1 X -41.600 Y  20.663
G1 X -20.663 Y  41.600
G1 X  20.663 Y  41.600
G1 X  41.600 Y  20.663
G1 X  41.600 Y -20.663
G1 X  20.663 Y -41.600
F150
G1 Z -17.200
F400
G1 X -20.663 Y -41.600
G1 X -41.600 Y -20.663
G1 X -41.600 Y  20.663
G1 X -20.663 Y  41.600
G1 X  20.663 Y  41.600
G1 X  41.600 Y  20.663
G1 X  41.600 Y -20.663
G1 X  20.663 Y -41.600
F150
G1 Z -17.400
F400
G1 X -20.663 Y -41.600
G1 X -41.600 Y -20.663
G1 X -41.600 Y  20.663
G1 X -20.663 Y  41.600
G1 X  20.663 Y  41.600
G1 X  41.600 Y  20.663
G1 X  41.600 Y -20.663
G1 X  20.663 Y -41.600
F150
G1 Z -17.600
F400
G1 X -20.663 Y -41.600
G1 X -41.600 Y -20.663
G1 X -41.600 Y  20.663
G1 X -20.663 Y  41.600
G1 X  20.663 Y  41.600
G1 X  41.600 Y  20.663
G1 X  41.600 Y -20.663
G1 X  20.663 Y -41.600
F150
G1 Z -17.800
F400
G1 X -20.663 Y -41.600
G1 X -41.600 Y -20.663
G1 X -41.600 Y  20.663
G1 X -20.663 Y  41.600
G1 X  20.663 Y  41.600
G1 X  41.600 Y  20.663
G1 X  41.600 Y -20.663
G1 X  20.663 Y -41.600
F150
G1 Z -18.000
F400
G1 X -20.663 Y -41.600
G1 X -41.600 Y -20.663
G1 X -41.600 Y  20.663
G1 X -20.663 Y  41.600
G1 X  20.663 Y  41.600
G1 X  41.600 Y  20.663
G1 X  41.600 Y -20.663
G1 X  20.663 Y -41.600
F150
G1 Z -18.200
F400
G1 X -20.663 Y -41.600
G1 X -41.600 Y -20.663
G1 X -41.600 Y  20.663
G1 X -20.663 Y  41.600
G1 X  20.663 Y  41.600
G1 X  41.600 Y  20.663
G1 X  41.600 Y -20.663
G1 X  20.663 Y -41.600
F150
G1 Z -18.400
F400
G1 X -20.663 Y -41.600
G1 X -41.600 Y -20.663
G1 X -41.600 Y  20.663
G1 X -20.663 Y  41.600
G1 X  20.663 Y  41.600
G1 X  41.600 Y  20.663
G1 X  41.600 Y -20.663
G1 X  20.663 Y -41.600
F150
G1 Z -18.600
F400
G1 X -20.663 Y -41.600
G1 X -41.600 Y -20.663
G1 X -41.600 Y  20.663
G1 X -20.663 Y  41.600
G1 X  20.663 Y  41.600
G1 X  41.600 Y  20.663
G1 X  41.600 Y -20.663
G1 X  20.663 Y -41.600
F150
G1 Z -18.600
F400
G1 X -20.663 Y -41.600
G1 X -41.600 Y -20.663
G1 X -41.600 Y  20.663
G1 X -20.663 Y  41.600
G1 X  20.663 Y  41.600
G1 X  41.600 Y  20.663
G1 X  41.600 Y -20.663
G1 X  20.663 Y -41.600
F150
G1 Z   2.500
G0 Z   5.000 
M9 M5
G0 X   0.000 Y   0.000
M2 (Program end)